( PCB Cuts )
( Generated by Rapid-PCB.com )
( Material Size)
( X= 30.000, Y= 85.000, Z= 1.600)
()
G00
G17
G21
G40
G49
G54
G80
G90
G94
G00 F3000 Z3.000
M03 S9000
G00 F3000 X-1.588 Y1.588
G00 F1500 Z0
G01 F60 Z-2.000
G01 F60 X-1.588 Y-86.588
G01 F60 X31.588 Y-86.588
G01 F60 X31.588 Y1.588
G01 F60 X-1.588 Y1.588
G00 F3000 Z3.000
G00 F3000 Z3.000
G00 F3000 X0.000 Y0.000
M05
M30
%