( PCB drills )
( Generated by Rapid-PCB.com )
( Material Size)
( X= 30.000, Y= 85.000, Z= 1.600)
()
G00
G17
G21
G40
G49
G54
G80
G90
G94
G00 F3000 Z3.000
M03 S9000
G00 F3000 X22.820 Y-42.371
G00 F1500 Z0
G01 F12 Z-2.500
G00 F3000 Z3.000
G00 F3000 X22.820 Y-50.710
G00 F1500 Z0
G01 F12 Z-2.500
G00 F3000 Z3.000
G00 F3000 X22.820 Y-59.010
G00 F1500 Z0
G01 F12 Z-2.500
G00 F3000 Z3.000
G00 F3000 X22.820 Y-69.310
G00 F1500 Z0
G01 F12 Z-2.500
G00 F3000 Z3.000
G00 F3000 X20.280 Y-7.080
G00 F1500 Z0
G01 F12 Z-2.500
G00 F3000 Z3.000
G00 F3000 X20.280 Y-79.470
G00 F1500 Z0
G01 F12 Z-2.500
G00 F3000 Z3.000
G00 F3000 X11.390 Y-7.080
G00 F1500 Z0
G01 F12 Z-2.500
G00 F3000 Z3.000
G00 F3000 X10.120 Y-45.180
G00 F1500 Z0
G01 F12 Z-2.500
G00 F3000 Z3.000
G00 F3000 X10.120 Y-61.179
G00 F1500 Z0
G01 F12 Z-2.500
G00 F3000 Z3.000
G00 F3000 X10.120 Y-79.470
G00 F1500 Z0
G01 F12 Z-2.500
G00 F3000 Z3.000
G00 F3000 X26.630 Y-4.540
G00 F1500 Z0
G01 F12 Z-2.500
G00 F3000 Z3.000
G00 F3000 X26.630 Y-80.740
G00 F1500 Z0
G01 F12 Z-2.500
G00 F3000 Z3.000
G00 F3000 X21.390 Y-24.860
G00 F1500 Z0
G01 F12 Z-2.500
G00 F3000 Z3.000
G00 F3000 X11.390 Y-24.860
G00 F1500 Z0
G01 F12 Z-2.500
G00 F3000 Z3.000
G00 F3000 X3.770 Y-4.540
G00 F1500 Z0
G01 F12 Z-2.500
G00 F3000 Z3.000
G00 F3000 X3.770 Y-80.740
G00 F1500 Z0
G01 F12 Z-2.500
G00 F3000 Z3.000
G00 F3000 Z3.000
G00 F3000 X0.000 Y0.000
M05
M30
%