( PCB Contour )
( Generated by Rapid-PCB.com )
( Material Size)
( X= 30.000, Y= 85.000, Z= 1.600)
()
G00
G17
G21
G40
G49
G54
G80
G90
G94
G00 F3000 Z3.000
M03 S9000
G00 F3000 X26.410 Y-2.451
G00 F1500 Z0
G01 F300 Z-0.200
G01 F300 X25.981 Y-2.542
G01 F300 X25.580 Y-2.721
G01 F300 X25.225 Y-2.979
G01 F300 X24.931 Y-3.305
G01 F300 X24.711 Y-3.686
G01 F300 X24.575 Y-4.103
G01 F300 X24.529 Y-4.540
G01 F300 X24.575 Y-4.977
G01 F300 X24.711 Y-5.394
G01 F300 X24.931 Y-5.775
G01 F300 X25.225 Y-6.101
G01 F300 X25.580 Y-6.359
G01 F300 X25.981 Y-6.538
G01 F300 X26.410 Y-6.629
G01 F300 X26.850 Y-6.629
G01 F300 X27.279 Y-6.538
G01 F300 X27.680 Y-6.359
G01 F300 X28.036 Y-6.101
G01 F300 X28.329 Y-5.775
G01 F300 X28.549 Y-5.394
G01 F300 X28.685 Y-4.977
G01 F300 X28.731 Y-4.540
G01 F300 X28.685 Y-4.103
G01 F300 X28.549 Y-3.686
G01 F300 X28.329 Y-3.305
G01 F300 X28.036 Y-2.979
G01 F300 X27.680 Y-2.721
G01 F300 X27.279 Y-2.542
G01 F300 X26.850 Y-2.451
G01 F300 X26.410 Y-2.451
G00 F3000 Z3.000
G00 F3000 X3.550 Y-2.451
G00 F1500 Z0
G01 F300 Z-0.200
G01 F300 X3.121 Y-2.542
G01 F300 X2.720 Y-2.721
G01 F300 X2.365 Y-2.979
G01 F300 X2.071 Y-3.305
G01 F300 X1.851 Y-3.686
G01 F300 X1.715 Y-4.103
G01 F300 X1.669 Y-4.540
G01 F300 X1.715 Y-4.977
G01 F300 X1.851 Y-5.394
G01 F300 X2.071 Y-5.775
G01 F300 X2.365 Y-6.101
G01 F300 X2.720 Y-6.359
G01 F300 X3.121 Y-6.538
G01 F300 X3.550 Y-6.629
G01 F300 X3.990 Y-6.629
G01 F300 X4.419 Y-6.538
G01 F300 X4.820 Y-6.359
G01 F300 X5.176 Y-6.101
G01 F300 X5.469 Y-5.775
G01 F300 X5.689 Y-5.394
G01 F300 X5.825 Y-4.977
G01 F300 X5.871 Y-4.540
G01 F300 X5.825 Y-4.103
G01 F300 X5.689 Y-3.686
G01 F300 X5.469 Y-3.305
G01 F300 X5.176 Y-2.979
G01 F300 X4.820 Y-2.721
G01 F300 X4.419 Y-2.542
G01 F300 X3.990 Y-2.451
G01 F300 X3.550 Y-2.451
G00 F3000 Z3.000
G00 F3000 X8.657 Y-5.240
G00 F1500 Z0
G01 F300 Z-0.200
G01 F300 X8.278 Y-5.320
G01 F300 X7.925 Y-5.477
G01 F300 X7.612 Y-5.705
G01 F300 X7.353 Y-5.992
G01 F300 X7.159 Y-6.327
G01 F300 X7.040 Y-6.695
G01 F300 X7.000 Y-7.075
G01 F300 X7.000 Y-15.484
G01 F300 X6.655 Y-15.637
G01 F300 X6.344 Y-15.863
G01 F300 X2.526 Y-19.681
G01 F300 X2.273 Y-19.962
G01 F300 X2.079 Y-20.297
G01 F300 X1.960 Y-20.665
G01 F300 X1.920 Y-21.045
G01 F300 X1.920 Y-43.915
G01 F300 X1.960 Y-44.295
G01 F300 X2.079 Y-44.663
G01 F300 X2.273 Y-44.998
G01 F300 X2.526 Y-45.279
G01 F300 X3.804 Y-46.557
G01 F300 X4.115 Y-46.783
G01 F300 X4.468 Y-46.940
G01 F300 X4.847 Y-47.020
G01 F300 X10.313 Y-47.020
G01 F300 X10.692 Y-46.940
G01 F300 X11.045 Y-46.783
G01 F300 X11.358 Y-46.555
G01 F300 X11.617 Y-46.268
G01 F300 X11.811 Y-45.933
G01 F300 X11.930 Y-45.565
G01 F300 X11.971 Y-45.180
G01 F300 X11.930 Y-44.795
G01 F300 X11.811 Y-44.427
G01 F300 X11.617 Y-44.092
G01 F300 X11.358 Y-43.805
G01 F300 X11.045 Y-43.577
G01 F300 X10.692 Y-43.420
G01 F300 X10.313 Y-43.340
G01 F300 X5.813 Y-43.340
G01 F300 X5.620 Y-43.147
G01 F300 X5.620 Y-21.813
G01 F300 X8.353 Y-19.080
G01 F300 X9.043 Y-19.080
G01 F300 X9.422 Y-19.000
G01 F300 X9.775 Y-18.843
G01 F300 X10.088 Y-18.615
G01 F300 X10.347 Y-18.328
G01 F300 X10.541 Y-17.993
G01 F300 X10.660 Y-17.625
G01 F300 X10.700 Y-17.245
G01 F300 X10.700 Y-8.920
G01 F300 X11.583 Y-8.920
G01 F300 X11.962 Y-8.840
G01 F300 X12.315 Y-8.683
G01 F300 X12.319 Y-8.680
G01 F300 X12.990 Y-8.680
G01 F300 X12.990 Y-7.990
G01 F300 X13.081 Y-7.833
G01 F300 X13.200 Y-7.465
G01 F300 X13.241 Y-7.080
G01 F300 X13.200 Y-6.695
G01 F300 X13.081 Y-6.327
G01 F300 X12.990 Y-6.170
G01 F300 X12.990 Y-5.480
G01 F300 X12.319 Y-5.480
G01 F300 X12.315 Y-5.477
G01 F300 X11.962 Y-5.320
G01 F300 X11.583 Y-5.240
G01 F300 X8.657 Y-5.240
G00 F3000 Z3.000
G00 F3000 X20.087 Y-5.240
G00 F1500 Z0
G01 F300 Z-0.200
G01 F300 X19.708 Y-5.320
G01 F300 X19.355 Y-5.477
G01 F300 X19.351 Y-5.480
G01 F300 X18.680 Y-5.480
G01 F300 X18.680 Y-6.170
G01 F300 X18.589 Y-6.327
G01 F300 X18.470 Y-6.695
G01 F300 X18.430 Y-7.075
G01 F300 X18.430 Y-22.667
G01 F300 X17.606 Y-23.491
G01 F300 X17.353 Y-23.772
G01 F300 X17.159 Y-24.107
G01 F300 X17.040 Y-24.475
G01 F300 X17.000 Y-24.855
G01 F300 X17.000 Y-38.405
G01 F300 X17.040 Y-38.785
G01 F300 X17.159 Y-39.153
G01 F300 X17.353 Y-39.488
G01 F300 X17.607 Y-39.769
G01 F300 X21.584 Y-43.747
G01 F300 X21.895 Y-43.973
G01 F300 X22.248 Y-44.130
G01 F300 X22.627 Y-44.210
G01 F300 X23.013 Y-44.210
G01 F300 X23.392 Y-44.130
G01 F300 X23.745 Y-43.973
G01 F300 X24.058 Y-43.745
G01 F300 X24.317 Y-43.458
G01 F300 X24.511 Y-43.123
G01 F300 X24.630 Y-42.755
G01 F300 X24.671 Y-42.370
G01 F300 X24.630 Y-41.985
G01 F300 X24.511 Y-41.617
G01 F300 X24.317 Y-41.282
G01 F300 X24.064 Y-41.001
G01 F300 X20.700 Y-37.637
G01 F300 X20.700 Y-26.840
G01 F300 X20.741 Y-26.858
G01 F300 X21.170 Y-26.949
G01 F300 X21.610 Y-26.949
G01 F300 X22.039 Y-26.858
G01 F300 X22.440 Y-26.679
G01 F300 X22.796 Y-26.421
G01 F300 X23.089 Y-26.095
G01 F300 X23.309 Y-25.714
G01 F300 X23.445 Y-25.297
G01 F300 X23.491 Y-24.860
G01 F300 X23.445 Y-24.423
G01 F300 X23.309 Y-24.006
G01 F300 X23.089 Y-23.625
G01 F300 X22.796 Y-23.299
G01 F300 X22.440 Y-23.041
G01 F300 X22.130 Y-22.903
G01 F300 X22.130 Y-7.075
G01 F300 X22.090 Y-6.695
G01 F300 X21.971 Y-6.327
G01 F300 X21.880 Y-6.170
G01 F300 X21.880 Y-5.480
G01 F300 X21.209 Y-5.480
G01 F300 X21.205 Y-5.477
G01 F300 X20.852 Y-5.320
G01 F300 X20.473 Y-5.240
G01 F300 X20.087 Y-5.240
G00 F3000 Z3.000
G00 F3000 X23.768 Y-9.018
G00 F1500 Z0
G01 F300 Z-0.200
G01 F300 X23.696 Y-9.033
G01 F300 X23.629 Y-9.063
G01 F300 X23.570 Y-9.106
G01 F300 X23.521 Y-9.160
G01 F300 X23.484 Y-9.224
G01 F300 X23.461 Y-9.293
G01 F300 X23.454 Y-9.361
G01 F300 X23.454 Y-12.419
G01 F300 X23.461 Y-12.487
G01 F300 X23.484 Y-12.556
G01 F300 X23.521 Y-12.620
G01 F300 X23.570 Y-12.674
G01 F300 X23.629 Y-12.717
G01 F300 X23.696 Y-12.747
G01 F300 X23.768 Y-12.762
G01 F300 X23.841 Y-12.762
G01 F300 X23.913 Y-12.747
G01 F300 X23.980 Y-12.717
G01 F300 X24.039 Y-12.674
G01 F300 X24.088 Y-12.620
G01 F300 X24.125 Y-12.556
G01 F300 X24.147 Y-12.487
G01 F300 X24.154 Y-12.419
G01 F300 X24.154 Y-9.361
G01 F300 X24.147 Y-9.293
G01 F300 X24.125 Y-9.224
G01 F300 X24.088 Y-9.160
G01 F300 X24.039 Y-9.106
G01 F300 X23.980 Y-9.063
G01 F300 X23.913 Y-9.033
G01 F300 X23.841 Y-9.018
G01 F300 X23.768 Y-9.018
G00 F3000 Z3.000
G00 F3000 X4.718 Y-10.288
G00 F1500 Z0
G01 F300 Z-0.200
G01 F300 X4.646 Y-10.303
G01 F300 X4.579 Y-10.333
G01 F300 X4.520 Y-10.376
G01 F300 X4.471 Y-10.430
G01 F300 X4.434 Y-10.494
G01 F300 X4.411 Y-10.563
G01 F300 X4.404 Y-10.631
G01 F300 X4.404 Y-11.811
G01 F300 X3.194 Y-11.811
G01 F300 X3.122 Y-11.827
G01 F300 X3.055 Y-11.856
G01 F300 X2.996 Y-11.899
G01 F300 X2.947 Y-11.954
G01 F300 X2.910 Y-12.017
G01 F300 X2.888 Y-12.087
G01 F300 X2.880 Y-12.160
G01 F300 X2.888 Y-12.233
G01 F300 X2.910 Y-12.303
G01 F300 X2.947 Y-12.366
G01 F300 X2.996 Y-12.421
G01 F300 X3.055 Y-12.464
G01 F300 X3.122 Y-12.493
G01 F300 X3.194 Y-12.509
G01 F300 X4.404 Y-12.509
G01 F300 X4.404 Y-13.689
G01 F300 X4.411 Y-13.757
G01 F300 X4.434 Y-13.826
G01 F300 X4.471 Y-13.890
G01 F300 X4.520 Y-13.944
G01 F300 X4.579 Y-13.987
G01 F300 X4.646 Y-14.017
G01 F300 X4.718 Y-14.032
G01 F300 X4.791 Y-14.032
G01 F300 X4.863 Y-14.017
G01 F300 X4.930 Y-13.987
G01 F300 X4.989 Y-13.944
G01 F300 X5.038 Y-13.890
G01 F300 X5.075 Y-13.826
G01 F300 X5.097 Y-13.757
G01 F300 X5.104 Y-13.689
G01 F300 X5.104 Y-12.509
G01 F300 X6.315 Y-12.509
G01 F300 X6.386 Y-12.493
G01 F300 X6.453 Y-12.464
G01 F300 X6.513 Y-12.421
G01 F300 X6.562 Y-12.366
G01 F300 X6.598 Y-12.303
G01 F300 X6.621 Y-12.233
G01 F300 X6.629 Y-12.160
G01 F300 X6.621 Y-12.087
G01 F300 X6.598 Y-12.017
G01 F300 X6.562 Y-11.954
G01 F300 X6.513 Y-11.899
G01 F300 X6.453 Y-11.856
G01 F300 X6.386 Y-11.827
G01 F300 X6.315 Y-11.811
G01 F300 X5.104 Y-11.811
G01 F300 X5.104 Y-10.631
G01 F300 X5.097 Y-10.563
G01 F300 X5.075 Y-10.494
G01 F300 X5.038 Y-10.430
G01 F300 X4.989 Y-10.376
G01 F300 X4.930 Y-10.333
G01 F300 X4.863 Y-10.303
G01 F300 X4.791 Y-10.288
G01 F300 X4.718 Y-10.288
G00 F3000 Z3.000
G00 F3000 X25.462 Y-15.147
G00 F1500 Z0
G01 F300 Z-0.200
G01 F300 X25.391 Y-15.162
G01 F300 X25.324 Y-15.192
G01 F300 X25.265 Y-15.235
G01 F300 X25.215 Y-15.289
G01 F300 X25.179 Y-15.353
G01 F300 X25.156 Y-15.422
G01 F300 X25.149 Y-15.495
G01 F300 X25.156 Y-15.568
G01 F300 X25.179 Y-15.638
G01 F300 X25.215 Y-15.701
G01 F300 X25.265 Y-15.756
G01 F300 X25.324 Y-15.799
G01 F300 X25.386 Y-15.826
G01 F300 X25.863 Y-15.986
G01 F300 X25.863 Y-16.672
G01 F300 X25.386 Y-16.831
G01 F300 X25.324 Y-16.858
G01 F300 X25.265 Y-16.901
G01 F300 X25.215 Y-16.956
G01 F300 X25.179 Y-17.019
G01 F300 X25.156 Y-17.089
G01 F300 X25.149 Y-17.162
G01 F300 X25.156 Y-17.235
G01 F300 X25.179 Y-17.305
G01 F300 X25.215 Y-17.368
G01 F300 X25.265 Y-17.422
G01 F300 X25.324 Y-17.466
G01 F300 X25.391 Y-17.495
G01 F300 X25.462 Y-17.511
G01 F300 X25.536 Y-17.511
G01 F300 X25.603 Y-17.496
G01 F300 X28.113 Y-16.660
G01 F300 X28.174 Y-16.632
G01 F300 X28.234 Y-16.589
G01 F300 X28.283 Y-16.535
G01 F300 X28.319 Y-16.471
G01 F300 X28.342 Y-16.402
G01 F300 X28.350 Y-16.329
G01 F300 X28.342 Y-16.256
G01 F300 X28.319 Y-16.186
G01 F300 X28.283 Y-16.123
G01 F300 X28.234 Y-16.068
G01 F300 X28.174 Y-16.025
G01 F300 X28.113 Y-15.998
G01 F300 X25.603 Y-15.161
G01 F300 X25.536 Y-15.147
G01 F300 X25.462 Y-15.147
G00 F3000 Z3.000
G00 F3000 X26.563 Y-16.219
G00 F1500 Z0
G01 F300 Z-0.200
G01 F300 X26.892 Y-16.329
G01 F300 X26.563 Y-16.438
G01 F300 X26.563 Y-16.219
G00 F3000 Z3.000
G00 F3000 X25.820 Y-17.647
G00 F1500 Z0
G01 F300 Z-0.200
G01 F300 X25.748 Y-17.662
G01 F300 X25.689 Y-17.688
G01 F300 X25.441 Y-17.812
G01 F300 X25.384 Y-17.854
G01 F300 X25.335 Y-17.908
G01 F300 X25.302 Y-17.965
G01 F300 X25.178 Y-18.213
G01 F300 X25.156 Y-18.280
G01 F300 X25.149 Y-18.347
G01 F300 X25.149 Y-18.715
G01 F300 X25.156 Y-18.782
G01 F300 X25.178 Y-18.849
G01 F300 X25.198 Y-18.890
G01 F300 X25.179 Y-18.924
G01 F300 X25.156 Y-18.994
G01 F300 X25.149 Y-19.067
G01 F300 X25.156 Y-19.140
G01 F300 X25.179 Y-19.209
G01 F300 X25.215 Y-19.273
G01 F300 X25.265 Y-19.327
G01 F300 X25.324 Y-19.370
G01 F300 X25.391 Y-19.400
G01 F300 X25.462 Y-19.415
G01 F300 X27.202 Y-19.415
G01 F300 X27.274 Y-19.400
G01 F300 X27.341 Y-19.370
G01 F300 X27.400 Y-19.327
G01 F300 X27.449 Y-19.273
G01 F300 X27.486 Y-19.209
G01 F300 X27.509 Y-19.140
G01 F300 X27.516 Y-19.067
G01 F300 X27.509 Y-18.994
G01 F300 X27.486 Y-18.924
G01 F300 X27.449 Y-18.861
G01 F300 X27.400 Y-18.806
G01 F300 X27.341 Y-18.763
G01 F300 X27.274 Y-18.733
G01 F300 X27.203 Y-18.718
G01 F300 X25.886 Y-18.701
G01 F300 X25.849 Y-18.627
G01 F300 X25.849 Y-18.435
G01 F300 X25.879 Y-18.375
G01 F300 X25.941 Y-18.344
G01 F300 X27.202 Y-18.344
G01 F300 X27.274 Y-18.329
G01 F300 X27.341 Y-18.299
G01 F300 X27.400 Y-18.256
G01 F300 X27.449 Y-18.201
G01 F300 X27.486 Y-18.138
G01 F300 X27.509 Y-18.068
G01 F300 X27.516 Y-17.995
G01 F300 X27.509 Y-17.922
G01 F300 X27.486 Y-17.853
G01 F300 X27.449 Y-17.789
G01 F300 X27.400 Y-17.735
G01 F300 X27.341 Y-17.692
G01 F300 X27.274 Y-17.662
G01 F300 X27.202 Y-17.647
G01 F300 X25.820 Y-17.647
G00 F3000 Z3.000
G00 F3000 X25.462 Y-19.909
G00 F1500 Z0
G01 F300 Z-0.200
G01 F300 X25.391 Y-19.924
G01 F300 X25.324 Y-19.954
G01 F300 X25.265 Y-19.997
G01 F300 X25.215 Y-20.051
G01 F300 X25.179 Y-20.115
G01 F300 X25.156 Y-20.184
G01 F300 X25.149 Y-20.257
G01 F300 X25.156 Y-20.330
G01 F300 X25.179 Y-20.400
G01 F300 X25.215 Y-20.463
G01 F300 X25.265 Y-20.518
G01 F300 X25.324 Y-20.561
G01 F300 X25.391 Y-20.591
G01 F300 X25.462 Y-20.606
G01 F300 X26.605 Y-20.606
G01 F300 X26.720 Y-20.663
G01 F300 X26.759 Y-20.702
G01 F300 X26.816 Y-20.815
G01 F300 X26.816 Y-20.977
G01 F300 X26.823 Y-21.044
G01 F300 X26.846 Y-21.114
G01 F300 X26.882 Y-21.178
G01 F300 X26.931 Y-21.232
G01 F300 X26.990 Y-21.275
G01 F300 X27.057 Y-21.305
G01 F300 X27.129 Y-21.320
G01 F300 X27.202 Y-21.320
G01 F300 X27.274 Y-21.305
G01 F300 X27.341 Y-21.275
G01 F300 X27.400 Y-21.232
G01 F300 X27.449 Y-21.178
G01 F300 X27.486 Y-21.114
G01 F300 X27.509 Y-21.044
G01 F300 X27.516 Y-20.977
G01 F300 X27.516 Y-20.728
G01 F300 X27.509 Y-20.660
G01 F300 X27.487 Y-20.594
G01 F300 X27.431 Y-20.483
G01 F300 X27.449 Y-20.463
G01 F300 X27.486 Y-20.400
G01 F300 X27.509 Y-20.330
G01 F300 X27.516 Y-20.257
G01 F300 X27.509 Y-20.184
G01 F300 X27.486 Y-20.115
G01 F300 X27.449 Y-20.051
G01 F300 X27.400 Y-19.997
G01 F300 X27.341 Y-19.954
G01 F300 X27.274 Y-19.924
G01 F300 X27.202 Y-19.909
G01 F300 X25.462 Y-19.909
G00 F3000 Z3.000
G00 F3000 X25.820 Y-21.337
G00 F1500 Z0
G01 F300 Z-0.200
G01 F300 X25.748 Y-21.352
G01 F300 X25.689 Y-21.379
G01 F300 X25.441 Y-21.503
G01 F300 X25.384 Y-21.544
G01 F300 X25.335 Y-21.599
G01 F300 X25.302 Y-21.656
G01 F300 X25.178 Y-21.903
G01 F300 X25.156 Y-21.970
G01 F300 X25.149 Y-22.038
G01 F300 X25.149 Y-22.524
G01 F300 X25.156 Y-22.592
G01 F300 X25.178 Y-22.659
G01 F300 X25.302 Y-22.906
G01 F300 X25.335 Y-22.963
G01 F300 X25.384 Y-23.018
G01 F300 X25.443 Y-23.061
G01 F300 X25.510 Y-23.091
G01 F300 X25.582 Y-23.106
G01 F300 X25.655 Y-23.106
G01 F300 X25.726 Y-23.091
G01 F300 X25.793 Y-23.061
G01 F300 X25.853 Y-23.018
G01 F300 X25.902 Y-22.963
G01 F300 X25.938 Y-22.900
G01 F300 X25.961 Y-22.830
G01 F300 X25.969 Y-22.757
G01 F300 X25.961 Y-22.684
G01 F300 X25.939 Y-22.617
G01 F300 X25.849 Y-22.437
G01 F300 X25.849 Y-22.125
G01 F300 X25.879 Y-22.065
G01 F300 X25.941 Y-22.034
G01 F300 X26.045 Y-22.034
G01 F300 X26.229 Y-22.954
G01 F300 X26.250 Y-23.019
G01 F300 X26.287 Y-23.082
G01 F300 X26.336 Y-23.137
G01 F300 X26.395 Y-23.180
G01 F300 X26.462 Y-23.210
G01 F300 X26.534 Y-23.225
G01 F300 X26.845 Y-23.225
G01 F300 X26.917 Y-23.210
G01 F300 X26.976 Y-23.183
G01 F300 X27.224 Y-23.059
G01 F300 X27.281 Y-23.018
G01 F300 X27.330 Y-22.963
G01 F300 X27.363 Y-22.906
G01 F300 X27.487 Y-22.659
G01 F300 X27.509 Y-22.592
G01 F300 X27.516 Y-22.524
G01 F300 X27.516 Y-22.038
G01 F300 X27.509 Y-21.970
G01 F300 X27.487 Y-21.903
G01 F300 X27.363 Y-21.656
G01 F300 X27.330 Y-21.599
G01 F300 X27.281 Y-21.544
G01 F300 X27.224 Y-21.503
G01 F300 X26.976 Y-21.379
G01 F300 X26.917 Y-21.352
G01 F300 X26.845 Y-21.337
G01 F300 X25.820 Y-21.337
G00 F3000 Z3.000
G00 F3000 X26.763 Y-22.054
G00 F1500 Z0
G01 F300 Z-0.200
G01 F300 X26.786 Y-22.065
G01 F300 X26.816 Y-22.125
G01 F300 X26.816 Y-22.318
G01 F300 X26.763 Y-22.054
G00 F3000 Z3.000
G00 F3000 X9.290 Y-22.760
G00 F1500 Z0
G01 F300 Z-0.200
G01 F300 X9.290 Y-26.960
G01 F300 X9.540 Y-26.960
G01 F300 X9.540 Y-38.835
G01 F300 X9.580 Y-39.215
G01 F300 X9.699 Y-39.583
G01 F300 X9.893 Y-39.918
G01 F300 X10.146 Y-40.199
G01 F300 X16.504 Y-46.557
G01 F300 X16.815 Y-46.783
G01 F300 X17.168 Y-46.940
G01 F300 X17.547 Y-47.020
G01 F300 X17.933 Y-47.020
G01 F300 X18.010 Y-47.004
G01 F300 X18.276 Y-47.269
G01 F300 X18.460 Y-47.403
G01 F300 X18.670 Y-47.497
G01 F300 X18.895 Y-47.544
G01 F300 X25.530 Y-47.544
G01 F300 X25.530 Y-54.245
G01 F300 X21.435 Y-54.245
G01 F300 X21.210 Y-54.293
G01 F300 X21.000 Y-54.387
G01 F300 X20.816 Y-54.521
G01 F300 X16.738 Y-58.598
G01 F300 X16.590 Y-58.763
G01 F300 X16.560 Y-58.815
G01 F300 X16.555 Y-58.817
G01 F300 X16.244 Y-59.043
G01 F300 X13.420 Y-61.867
G01 F300 X11.356 Y-59.803
G01 F300 X11.045 Y-59.577
G01 F300 X10.692 Y-59.420
G01 F300 X10.313 Y-59.340
G01 F300 X9.927 Y-59.340
G01 F300 X9.548 Y-59.420
G01 F300 X9.195 Y-59.577
G01 F300 X8.882 Y-59.805
G01 F300 X8.623 Y-60.092
G01 F300 X8.429 Y-60.427
G01 F300 X8.310 Y-60.795
G01 F300 X8.269 Y-61.180
G01 F300 X8.310 Y-61.565
G01 F300 X8.429 Y-61.933
G01 F300 X8.623 Y-62.268
G01 F300 X8.877 Y-62.549
G01 F300 X10.807 Y-64.480
G01 F300 X8.876 Y-66.411
G01 F300 X8.623 Y-66.692
G01 F300 X8.429 Y-67.027
G01 F300 X8.310 Y-67.395
G01 F300 X8.269 Y-67.780
G01 F300 X8.310 Y-68.165
G01 F300 X8.429 Y-68.533
G01 F300 X8.623 Y-68.868
G01 F300 X8.877 Y-69.149
G01 F300 X10.414 Y-70.687
G01 F300 X10.725 Y-70.913
G01 F300 X11.078 Y-71.070
G01 F300 X11.457 Y-71.150
G01 F300 X23.013 Y-71.150
G01 F300 X23.392 Y-71.070
G01 F300 X23.745 Y-70.913
G01 F300 X24.058 Y-70.685
G01 F300 X24.317 Y-70.398
G01 F300 X24.511 Y-70.063
G01 F300 X24.630 Y-69.695
G01 F300 X24.671 Y-69.310
G01 F300 X24.630 Y-68.925
G01 F300 X24.511 Y-68.557
G01 F300 X24.317 Y-68.222
G01 F300 X24.058 Y-67.935
G01 F300 X23.745 Y-67.707
G01 F300 X23.392 Y-67.550
G01 F300 X23.013 Y-67.470
G01 F300 X13.043 Y-67.470
G01 F300 X18.724 Y-61.789
G01 F300 X18.977 Y-61.508
G01 F300 X19.171 Y-61.173
G01 F300 X19.290 Y-60.805
G01 F300 X19.331 Y-60.420
G01 F300 X19.290 Y-60.035
G01 F300 X19.171 Y-59.667
G01 F300 X19.026 Y-59.417
G01 F300 X22.009 Y-56.434
G01 F300 X26.745 Y-56.434
G01 F300 X26.970 Y-56.387
G01 F300 X27.180 Y-56.293
G01 F300 X27.366 Y-56.158
G01 F300 X27.520 Y-55.987
G01 F300 X27.635 Y-55.788
G01 F300 X27.707 Y-55.569
G01 F300 X27.730 Y-55.345
G01 F300 X27.730 Y-46.445
G01 F300 X27.707 Y-46.221
G01 F300 X27.635 Y-46.002
G01 F300 X27.520 Y-45.803
G01 F300 X27.366 Y-45.632
G01 F300 X27.180 Y-45.497
G01 F300 X26.970 Y-45.403
G01 F300 X26.745 Y-45.355
G01 F300 X19.572 Y-45.355
G01 F300 X19.591 Y-45.180
G01 F300 X19.550 Y-44.795
G01 F300 X19.431 Y-44.427
G01 F300 X19.237 Y-44.092
G01 F300 X18.983 Y-43.811
G01 F300 X13.240 Y-38.067
G01 F300 X13.240 Y-26.960
G01 F300 X13.490 Y-26.960
G01 F300 X13.490 Y-22.760
G01 F300 X9.290 Y-22.760
G00 F3000 Z3.000
G00 F3000 X25.820 Y-23.599
G00 F1500 Z0
G01 F300 Z-0.200
G01 F300 X25.748 Y-23.614
G01 F300 X25.689 Y-23.641
G01 F300 X25.441 Y-23.764
G01 F300 X25.384 Y-23.806
G01 F300 X25.335 Y-23.861
G01 F300 X25.302 Y-23.918
G01 F300 X25.178 Y-24.165
G01 F300 X25.156 Y-24.232
G01 F300 X25.149 Y-24.305
G01 F300 X25.156 Y-24.378
G01 F300 X25.179 Y-24.447
G01 F300 X25.215 Y-24.511
G01 F300 X25.265 Y-24.565
G01 F300 X25.324 Y-24.608
G01 F300 X25.391 Y-24.638
G01 F300 X25.462 Y-24.653
G01 F300 X25.536 Y-24.653
G01 F300 X25.607 Y-24.638
G01 F300 X25.674 Y-24.608
G01 F300 X25.734 Y-24.565
G01 F300 X25.783 Y-24.511
G01 F300 X25.816 Y-24.454
G01 F300 X25.879 Y-24.327
G01 F300 X25.941 Y-24.296
G01 F300 X28.036 Y-24.296
G01 F300 X28.107 Y-24.281
G01 F300 X28.174 Y-24.251
G01 F300 X28.234 Y-24.208
G01 F300 X28.283 Y-24.154
G01 F300 X28.319 Y-24.090
G01 F300 X28.342 Y-24.021
G01 F300 X28.350 Y-23.948
G01 F300 X28.342 Y-23.875
G01 F300 X28.319 Y-23.805
G01 F300 X28.283 Y-23.742
G01 F300 X28.234 Y-23.687
G01 F300 X28.174 Y-23.644
G01 F300 X28.107 Y-23.614
G01 F300 X28.036 Y-23.599
G01 F300 X25.820 Y-23.599
G00 F3000 Z3.000
G00 F3000 X27.843 Y-24.790
G00 F1500 Z0
G01 F300 Z-0.200
G01 F300 X27.772 Y-24.805
G01 F300 X27.705 Y-24.835
G01 F300 X27.648 Y-24.876
G01 F300 X27.521 Y-25.003
G01 F300 X27.477 Y-25.051
G01 F300 X27.463 Y-25.075
G01 F300 X27.449 Y-25.051
G01 F300 X27.400 Y-24.997
G01 F300 X27.341 Y-24.954
G01 F300 X27.274 Y-24.924
G01 F300 X27.202 Y-24.909
G01 F300 X25.462 Y-24.909
G01 F300 X25.391 Y-24.924
G01 F300 X25.324 Y-24.954
G01 F300 X25.265 Y-24.997
G01 F300 X25.215 Y-25.051
G01 F300 X25.179 Y-25.115
G01 F300 X25.156 Y-25.184
G01 F300 X25.149 Y-25.257
G01 F300 X25.156 Y-25.330
G01 F300 X25.179 Y-25.400
G01 F300 X25.215 Y-25.463
G01 F300 X25.265 Y-25.518
G01 F300 X25.324 Y-25.561
G01 F300 X25.391 Y-25.591
G01 F300 X25.462 Y-25.606
G01 F300 X27.202 Y-25.606
G01 F300 X27.274 Y-25.591
G01 F300 X27.341 Y-25.561
G01 F300 X27.400 Y-25.518
G01 F300 X27.449 Y-25.463
G01 F300 X27.463 Y-25.439
G01 F300 X27.477 Y-25.463
G01 F300 X27.521 Y-25.512
G01 F300 X27.648 Y-25.638
G01 F300 X27.705 Y-25.680
G01 F300 X27.772 Y-25.710
G01 F300 X27.843 Y-25.725
G01 F300 X27.917 Y-25.725
G01 F300 X27.988 Y-25.710
G01 F300 X28.055 Y-25.680
G01 F300 X28.112 Y-25.638
G01 F300 X28.239 Y-25.512
G01 F300 X28.283 Y-25.463
G01 F300 X28.319 Y-25.400
G01 F300 X28.342 Y-25.330
G01 F300 X28.350 Y-25.257
G01 F300 X28.342 Y-25.184
G01 F300 X28.319 Y-25.115
G01 F300 X28.283 Y-25.051
G01 F300 X28.239 Y-25.003
G01 F300 X28.112 Y-24.876
G01 F300 X28.055 Y-24.835
G01 F300 X27.988 Y-24.805
G01 F300 X27.917 Y-24.790
G01 F300 X27.843 Y-24.790
G00 F3000 Z3.000
G00 F3000 X25.939 Y-25.980
G00 F1500 Z0
G01 F300 Z-0.200
G01 F300 X25.867 Y-25.995
G01 F300 X25.808 Y-26.022
G01 F300 X25.560 Y-26.145
G01 F300 X25.505 Y-26.186
G01 F300 X25.378 Y-26.312
G01 F300 X25.335 Y-26.361
G01 F300 X25.302 Y-26.418
G01 F300 X25.178 Y-26.665
G01 F300 X25.156 Y-26.732
G01 F300 X25.149 Y-26.800
G01 F300 X25.149 Y-27.167
G01 F300 X25.156 Y-27.235
G01 F300 X25.178 Y-27.302
G01 F300 X25.302 Y-27.549
G01 F300 X25.335 Y-27.606
G01 F300 X25.378 Y-27.655
G01 F300 X25.505 Y-27.781
G01 F300 X25.560 Y-27.821
G01 F300 X25.808 Y-27.945
G01 F300 X25.867 Y-27.972
G01 F300 X25.939 Y-27.987
G01 F300 X26.726 Y-27.987
G01 F300 X26.798 Y-27.972
G01 F300 X26.857 Y-27.945
G01 F300 X27.105 Y-27.821
G01 F300 X27.160 Y-27.781
G01 F300 X27.287 Y-27.655
G01 F300 X27.330 Y-27.606
G01 F300 X27.363 Y-27.549
G01 F300 X27.487 Y-27.302
G01 F300 X27.509 Y-27.235
G01 F300 X27.516 Y-27.167
G01 F300 X27.516 Y-26.800
G01 F300 X27.509 Y-26.732
G01 F300 X27.487 Y-26.665
G01 F300 X27.363 Y-26.418
G01 F300 X27.330 Y-26.361
G01 F300 X27.287 Y-26.312
G01 F300 X27.160 Y-26.186
G01 F300 X27.105 Y-26.145
G01 F300 X26.857 Y-26.022
G01 F300 X26.798 Y-25.995
G01 F300 X26.726 Y-25.980
G01 F300 X25.939 Y-25.980
G00 F3000 Z3.000
G00 F3000 X26.060 Y-26.677
G00 F1500 Z0
G01 F300 Z-0.200
G01 F300 X26.605 Y-26.677
G01 F300 X26.720 Y-26.735
G01 F300 X26.759 Y-26.774
G01 F300 X26.816 Y-26.887
G01 F300 X26.816 Y-27.080
G01 F300 X26.759 Y-27.193
G01 F300 X26.720 Y-27.232
G01 F300 X26.605 Y-27.290
G01 F300 X26.060 Y-27.290
G01 F300 X25.945 Y-27.232
G01 F300 X25.906 Y-27.193
G01 F300 X25.849 Y-27.080
G01 F300 X25.849 Y-26.887
G01 F300 X25.906 Y-26.773
G01 F300 X25.945 Y-26.735
G01 F300 X26.060 Y-26.677
G00 F3000 Z3.000
G00 F3000 X25.462 Y-30.028
G00 F1500 Z0
G01 F300 Z-0.200
G01 F300 X25.391 Y-30.043
G01 F300 X25.324 Y-30.073
G01 F300 X25.265 Y-30.116
G01 F300 X25.215 Y-30.170
G01 F300 X25.179 Y-30.234
G01 F300 X25.156 Y-30.303
G01 F300 X25.149 Y-30.371
G01 F300 X25.149 Y-31.929
G01 F300 X25.156 Y-31.997
G01 F300 X25.179 Y-32.066
G01 F300 X25.215 Y-32.130
G01 F300 X25.265 Y-32.184
G01 F300 X25.324 Y-32.227
G01 F300 X25.391 Y-32.257
G01 F300 X25.462 Y-32.272
G01 F300 X25.536 Y-32.272
G01 F300 X25.607 Y-32.257
G01 F300 X25.674 Y-32.227
G01 F300 X25.734 Y-32.184
G01 F300 X25.783 Y-32.130
G01 F300 X25.819 Y-32.066
G01 F300 X25.842 Y-31.997
G01 F300 X25.849 Y-31.929
G01 F300 X25.849 Y-31.221
G01 F300 X26.695 Y-32.067
G01 F300 X26.752 Y-32.108
G01 F300 X26.814 Y-32.136
G01 F300 X27.181 Y-32.258
G01 F300 X27.248 Y-32.272
G01 F300 X27.559 Y-32.272
G01 F300 X27.631 Y-32.257
G01 F300 X27.691 Y-32.231
G01 F300 X27.938 Y-32.107
G01 F300 X27.993 Y-32.067
G01 F300 X28.120 Y-31.940
G01 F300 X28.164 Y-31.892
G01 F300 X28.197 Y-31.835
G01 F300 X28.320 Y-31.587
G01 F300 X28.342 Y-31.521
G01 F300 X28.349 Y-31.453
G01 F300 X28.349 Y-30.847
G01 F300 X28.342 Y-30.780
G01 F300 X28.320 Y-30.713
G01 F300 X28.197 Y-30.465
G01 F300 X28.164 Y-30.408
G01 F300 X28.120 Y-30.360
G01 F300 X27.993 Y-30.233
G01 F300 X27.936 Y-30.192
G01 F300 X27.869 Y-30.162
G01 F300 X27.798 Y-30.147
G01 F300 X27.724 Y-30.147
G01 F300 X27.653 Y-30.162
G01 F300 X27.586 Y-30.192
G01 F300 X27.526 Y-30.235
G01 F300 X27.477 Y-30.289
G01 F300 X27.441 Y-30.353
G01 F300 X27.418 Y-30.422
G01 F300 X27.410 Y-30.495
G01 F300 X27.418 Y-30.568
G01 F300 X27.441 Y-30.638
G01 F300 X27.477 Y-30.701
G01 F300 X27.521 Y-30.750
G01 F300 X27.593 Y-30.821
G01 F300 X27.649 Y-30.934
G01 F300 X27.649 Y-31.366
G01 F300 X27.593 Y-31.479
G01 F300 X27.553 Y-31.518
G01 F300 X27.438 Y-31.575
G01 F300 X27.346 Y-31.575
G01 F300 X27.116 Y-31.499
G01 F300 X25.732 Y-30.114
G01 F300 X25.674 Y-30.073
G01 F300 X25.607 Y-30.043
G01 F300 X25.536 Y-30.028
G01 F300 X25.462 Y-30.028
G00 F3000 Z3.000
G00 F3000 X26.415 Y-32.528
G00 F1500 Z0
G01 F300 Z-0.200
G01 F300 X26.352 Y-32.541
G01 F300 X25.865 Y-32.663
G01 F300 X25.808 Y-32.688
G01 F300 X25.560 Y-32.812
G01 F300 X25.505 Y-32.852
G01 F300 X25.378 Y-32.979
G01 F300 X25.335 Y-33.027
G01 F300 X25.302 Y-33.084
G01 F300 X25.178 Y-33.332
G01 F300 X25.156 Y-33.398
G01 F300 X25.149 Y-33.466
G01 F300 X25.149 Y-33.715
G01 F300 X25.156 Y-33.782
G01 F300 X25.178 Y-33.849
G01 F300 X25.302 Y-34.097
G01 F300 X25.335 Y-34.154
G01 F300 X25.378 Y-34.202
G01 F300 X25.505 Y-34.329
G01 F300 X25.560 Y-34.369
G01 F300 X25.817 Y-34.497
G01 F300 X25.865 Y-34.518
G01 F300 X26.352 Y-34.640
G01 F300 X26.415 Y-34.653
G01 F300 X27.083 Y-34.653
G01 F300 X27.146 Y-34.640
G01 F300 X27.633 Y-34.518
G01 F300 X27.691 Y-34.493
G01 F300 X27.938 Y-34.369
G01 F300 X27.993 Y-34.329
G01 F300 X28.120 Y-34.202
G01 F300 X28.164 Y-34.154
G01 F300 X28.197 Y-34.097
G01 F300 X28.320 Y-33.849
G01 F300 X28.342 Y-33.782
G01 F300 X28.349 Y-33.715
G01 F300 X28.349 Y-33.466
G01 F300 X28.342 Y-33.398
G01 F300 X28.320 Y-33.332
G01 F300 X28.197 Y-33.084
G01 F300 X28.164 Y-33.027
G01 F300 X28.120 Y-32.979
G01 F300 X27.993 Y-32.852
G01 F300 X27.938 Y-32.812
G01 F300 X27.691 Y-32.688
G01 F300 X27.633 Y-32.663
G01 F300 X27.146 Y-32.541
G01 F300 X27.083 Y-32.528
G01 F300 X26.415 Y-32.528
G00 F3000 Z3.000
G00 F3000 X26.497 Y-33.225
G00 F1500 Z0
G01 F300 Z-0.200
G01 F300 X27.001 Y-33.225
G01 F300 X27.400 Y-33.325
G01 F300 X27.554 Y-33.401
G01 F300 X27.593 Y-33.440
G01 F300 X27.649 Y-33.553
G01 F300 X27.649 Y-33.628
G01 F300 X27.593 Y-33.741
G01 F300 X27.553 Y-33.780
G01 F300 X27.400 Y-33.856
G01 F300 X27.001 Y-33.956
G01 F300 X26.497 Y-33.956
G01 F300 X26.098 Y-33.856
G01 F300 X25.945 Y-33.780
G01 F300 X25.906 Y-33.741
G01 F300 X25.849 Y-33.627
G01 F300 X25.849 Y-33.554
G01 F300 X25.906 Y-33.440
G01 F300 X25.945 Y-33.401
G01 F300 X26.098 Y-33.325
G01 F300 X26.497 Y-33.225
G00 F3000 Z3.000
G00 F3000 X25.462 Y-34.790
G00 F1500 Z0
G01 F300 Z-0.200
G01 F300 X25.391 Y-34.805
G01 F300 X25.324 Y-34.834
G01 F300 X25.265 Y-34.878
G01 F300 X25.215 Y-34.932
G01 F300 X25.179 Y-34.995
G01 F300 X25.156 Y-35.065
G01 F300 X25.149 Y-35.133
G01 F300 X25.149 Y-36.691
G01 F300 X25.156 Y-36.759
G01 F300 X25.179 Y-36.828
G01 F300 X25.215 Y-36.892
G01 F300 X25.265 Y-36.946
G01 F300 X25.324 Y-36.989
G01 F300 X25.391 Y-37.019
G01 F300 X25.462 Y-37.034
G01 F300 X25.536 Y-37.034
G01 F300 X25.607 Y-37.019
G01 F300 X25.674 Y-36.989
G01 F300 X25.734 Y-36.946
G01 F300 X25.783 Y-36.892
G01 F300 X25.819 Y-36.828
G01 F300 X25.842 Y-36.759
G01 F300 X25.849 Y-36.691
G01 F300 X25.849 Y-35.983
G01 F300 X26.695 Y-36.829
G01 F300 X26.752 Y-36.870
G01 F300 X26.814 Y-36.898
G01 F300 X27.181 Y-37.020
G01 F300 X27.248 Y-37.034
G01 F300 X27.559 Y-37.034
G01 F300 X27.631 Y-37.019
G01 F300 X27.691 Y-36.993
G01 F300 X27.938 Y-36.869
G01 F300 X27.993 Y-36.829
G01 F300 X28.120 Y-36.702
G01 F300 X28.164 Y-36.654
G01 F300 X28.197 Y-36.597
G01 F300 X28.320 Y-36.349
G01 F300 X28.342 Y-36.282
G01 F300 X28.349 Y-36.215
G01 F300 X28.349 Y-35.609
G01 F300 X28.342 Y-35.541
G01 F300 X28.320 Y-35.475
G01 F300 X28.197 Y-35.227
G01 F300 X28.164 Y-35.170
G01 F300 X28.120 Y-35.122
G01 F300 X27.993 Y-34.995
G01 F300 X27.936 Y-34.954
G01 F300 X27.869 Y-34.924
G01 F300 X27.798 Y-34.909
G01 F300 X27.724 Y-34.909
G01 F300 X27.653 Y-34.924
G01 F300 X27.586 Y-34.954
G01 F300 X27.526 Y-34.997
G01 F300 X27.477 Y-35.051
G01 F300 X27.441 Y-35.115
G01 F300 X27.418 Y-35.184
G01 F300 X27.410 Y-35.257
G01 F300 X27.418 Y-35.330
G01 F300 X27.441 Y-35.400
G01 F300 X27.477 Y-35.463
G01 F300 X27.521 Y-35.512
G01 F300 X27.593 Y-35.583
G01 F300 X27.649 Y-35.696
G01 F300 X27.649 Y-36.128
G01 F300 X27.593 Y-36.241
G01 F300 X27.553 Y-36.280
G01 F300 X27.438 Y-36.337
G01 F300 X27.346 Y-36.337
G01 F300 X27.116 Y-36.261
G01 F300 X25.732 Y-34.876
G01 F300 X25.674 Y-34.834
G01 F300 X25.607 Y-34.805
G01 F300 X25.536 Y-34.790
G01 F300 X25.462 Y-34.790
G00 F3000 Z3.000
G00 F3000 X25.462 Y-37.290
G00 F1500 Z0
G01 F300 Z-0.200
G01 F300 X25.391 Y-37.305
G01 F300 X25.324 Y-37.334
G01 F300 X25.265 Y-37.378
G01 F300 X25.215 Y-37.432
G01 F300 X25.179 Y-37.495
G01 F300 X25.156 Y-37.565
G01 F300 X25.149 Y-37.633
G01 F300 X25.149 Y-39.072
G01 F300 X25.156 Y-39.140
G01 F300 X25.179 Y-39.209
G01 F300 X25.215 Y-39.273
G01 F300 X25.265 Y-39.327
G01 F300 X25.324 Y-39.370
G01 F300 X25.391 Y-39.400
G01 F300 X25.462 Y-39.415
G01 F300 X25.536 Y-39.415
G01 F300 X25.607 Y-39.400
G01 F300 X25.674 Y-39.370
G01 F300 X25.734 Y-39.327
G01 F300 X25.783 Y-39.273
G01 F300 X25.819 Y-39.209
G01 F300 X25.842 Y-39.140
G01 F300 X25.849 Y-39.072
G01 F300 X25.849 Y-38.701
G01 F300 X28.036 Y-38.701
G01 F300 X28.107 Y-38.686
G01 F300 X28.174 Y-38.656
G01 F300 X28.234 Y-38.613
G01 F300 X28.283 Y-38.558
G01 F300 X28.319 Y-38.495
G01 F300 X28.342 Y-38.425
G01 F300 X28.350 Y-38.352
G01 F300 X28.342 Y-38.279
G01 F300 X28.319 Y-38.210
G01 F300 X28.283 Y-38.146
G01 F300 X28.234 Y-38.092
G01 F300 X28.181 Y-38.054
G01 F300 X27.865 Y-37.843
G01 F300 X27.691 Y-37.669
G01 F300 X27.601 Y-37.489
G01 F300 X27.568 Y-37.432
G01 F300 X27.519 Y-37.378
G01 F300 X27.460 Y-37.334
G01 F300 X27.393 Y-37.305
G01 F300 X27.321 Y-37.290
G01 F300 X27.248 Y-37.290
G01 F300 X27.176 Y-37.305
G01 F300 X27.110 Y-37.334
G01 F300 X27.050 Y-37.378
G01 F300 X27.001 Y-37.432
G01 F300 X26.965 Y-37.495
G01 F300 X26.942 Y-37.565
G01 F300 X26.934 Y-37.638
G01 F300 X26.942 Y-37.711
G01 F300 X26.964 Y-37.778
G01 F300 X27.077 Y-38.004
G01 F300 X25.849 Y-38.004
G01 F300 X25.849 Y-37.633
G01 F300 X25.842 Y-37.565
G01 F300 X25.819 Y-37.495
G01 F300 X25.783 Y-37.432
G01 F300 X25.734 Y-37.378
G01 F300 X25.674 Y-37.334
G01 F300 X25.607 Y-37.305
G01 F300 X25.536 Y-37.290
G01 F300 X25.462 Y-37.290
G00 F3000 Z3.000
G00 F3000 X17.097 Y-48.870
G00 F1500 Z0
G01 F300 Z-0.200
G01 F300 X16.718 Y-48.950
G01 F300 X16.365 Y-49.107
G01 F300 X16.054 Y-49.333
G01 F300 X10.617 Y-54.770
G01 F300 X6.117 Y-54.770
G01 F300 X5.738 Y-54.850
G01 F300 X5.385 Y-55.007
G01 F300 X5.074 Y-55.233
G01 F300 X3.796 Y-56.511
G01 F300 X3.543 Y-56.792
G01 F300 X3.349 Y-57.127
G01 F300 X3.230 Y-57.495
G01 F300 X3.190 Y-57.875
G01 F300 X3.190 Y-73.125
G01 F300 X3.230 Y-73.505
G01 F300 X3.349 Y-73.873
G01 F300 X3.543 Y-74.208
G01 F300 X3.796 Y-74.489
G01 F300 X8.270 Y-78.963
G01 F300 X8.270 Y-79.475
G01 F300 X8.310 Y-79.855
G01 F300 X8.429 Y-80.223
G01 F300 X8.520 Y-80.380
G01 F300 X8.520 Y-81.070
G01 F300 X9.191 Y-81.070
G01 F300 X9.195 Y-81.073
G01 F300 X9.548 Y-81.230
G01 F300 X9.927 Y-81.310
G01 F300 X10.313 Y-81.310
G01 F300 X10.692 Y-81.230
G01 F300 X11.045 Y-81.073
G01 F300 X11.049 Y-81.070
G01 F300 X11.720 Y-81.070
G01 F300 X11.720 Y-80.380
G01 F300 X11.811 Y-80.223
G01 F300 X11.930 Y-79.855
G01 F300 X11.970 Y-79.475
G01 F300 X11.970 Y-78.195
G01 F300 X11.930 Y-77.815
G01 F300 X11.811 Y-77.447
G01 F300 X11.617 Y-77.112
G01 F300 X11.364 Y-76.831
G01 F300 X6.890 Y-72.357
G01 F300 X6.890 Y-58.643
G01 F300 X7.083 Y-58.450
G01 F300 X11.583 Y-58.450
G01 F300 X11.962 Y-58.370
G01 F300 X12.315 Y-58.213
G01 F300 X12.626 Y-57.987
G01 F300 X18.063 Y-52.550
G01 F300 X23.013 Y-52.550
G01 F300 X23.392 Y-52.470
G01 F300 X23.745 Y-52.313
G01 F300 X24.058 Y-52.085
G01 F300 X24.317 Y-51.798
G01 F300 X24.511 Y-51.463
G01 F300 X24.630 Y-51.095
G01 F300 X24.671 Y-50.710
G01 F300 X24.630 Y-50.325
G01 F300 X24.511 Y-49.957
G01 F300 X24.317 Y-49.622
G01 F300 X24.058 Y-49.335
G01 F300 X23.745 Y-49.107
G01 F300 X23.392 Y-48.950
G01 F300 X23.013 Y-48.870
G01 F300 X17.097 Y-48.870
G00 F3000 Z3.000
G00 F3000 X22.627 Y-57.170
G00 F1500 Z0
G01 F300 Z-0.200
G01 F300 X22.248 Y-57.250
G01 F300 X21.895 Y-57.407
G01 F300 X21.582 Y-57.635
G01 F300 X21.323 Y-57.922
G01 F300 X21.129 Y-58.257
G01 F300 X21.010 Y-58.625
G01 F300 X20.969 Y-59.010
G01 F300 X21.010 Y-59.395
G01 F300 X21.129 Y-59.763
G01 F300 X21.323 Y-60.098
G01 F300 X21.582 Y-60.385
G01 F300 X21.895 Y-60.613
G01 F300 X22.248 Y-60.770
G01 F300 X22.627 Y-60.850
G01 F300 X24.448 Y-60.850
G01 F300 X25.394 Y-61.797
G01 F300 X25.705 Y-62.023
G01 F300 X26.058 Y-62.180
G01 F300 X26.437 Y-62.260
G01 F300 X26.800 Y-62.260
G01 F300 X26.800 Y-72.550
G01 F300 X26.437 Y-72.550
G01 F300 X26.058 Y-72.630
G01 F300 X25.705 Y-72.787
G01 F300 X25.394 Y-73.013
G01 F300 X24.588 Y-73.820
G01 F300 X22.627 Y-73.820
G01 F300 X22.248 Y-73.900
G01 F300 X21.895 Y-74.057
G01 F300 X21.582 Y-74.285
G01 F300 X21.323 Y-74.572
G01 F300 X21.129 Y-74.907
G01 F300 X21.010 Y-75.275
G01 F300 X20.970 Y-75.655
G01 F300 X20.970 Y-76.167
G01 F300 X19.267 Y-77.870
G01 F300 X18.680 Y-77.870
G01 F300 X18.680 Y-78.560
G01 F300 X18.589 Y-78.717
G01 F300 X18.470 Y-79.085
G01 F300 X18.429 Y-79.470
G01 F300 X18.470 Y-79.855
G01 F300 X18.589 Y-80.223
G01 F300 X18.680 Y-80.380
G01 F300 X18.680 Y-81.070
G01 F300 X19.351 Y-81.070
G01 F300 X19.355 Y-81.073
G01 F300 X19.708 Y-81.230
G01 F300 X20.087 Y-81.310
G01 F300 X20.473 Y-81.310
G01 F300 X20.852 Y-81.230
G01 F300 X21.205 Y-81.073
G01 F300 X21.209 Y-81.070
G01 F300 X21.880 Y-81.070
G01 F300 X21.880 Y-80.483
G01 F300 X24.064 Y-78.299
G01 F300 X24.317 Y-78.018
G01 F300 X24.511 Y-77.683
G01 F300 X24.570 Y-77.500
G01 F300 X25.553 Y-77.500
G01 F300 X25.932 Y-77.420
G01 F300 X26.285 Y-77.263
G01 F300 X26.596 Y-77.037
G01 F300 X27.873 Y-75.759
G01 F300 X28.127 Y-75.478
G01 F300 X28.138 Y-75.458
G01 F300 X28.240 Y-75.437
G01 F300 X28.450 Y-75.343
G01 F300 X28.636 Y-75.208
G01 F300 X28.790 Y-75.037
G01 F300 X28.905 Y-74.838
G01 F300 X28.977 Y-74.619
G01 F300 X29.000 Y-74.395
G01 F300 X29.000 Y-61.685
G01 F300 X28.977 Y-61.461
G01 F300 X28.905 Y-61.242
G01 F300 X28.790 Y-61.043
G01 F300 X28.642 Y-60.878
G01 F300 X28.452 Y-60.689
G01 F300 X28.481 Y-60.420
G01 F300 X28.440 Y-60.035
G01 F300 X28.321 Y-59.667
G01 F300 X28.127 Y-59.332
G01 F300 X27.873 Y-59.051
G01 F300 X26.456 Y-57.633
G01 F300 X26.145 Y-57.407
G01 F300 X25.792 Y-57.250
G01 F300 X25.413 Y-57.170
G01 F300 X22.627 Y-57.170
G00 F3000 Z3.000
G00 F3000 X13.806 Y-76.621
G00 F1500 Z0
G01 F300 Z-0.200
G01 F300 X13.735 Y-76.637
G01 F300 X13.668 Y-76.666
G01 F300 X13.608 Y-76.710
G01 F300 X13.559 Y-76.764
G01 F300 X13.523 Y-76.827
G01 F300 X13.500 Y-76.897
G01 F300 X13.492 Y-76.970
G01 F300 X13.500 Y-77.043
G01 F300 X13.523 Y-77.113
G01 F300 X13.559 Y-77.176
G01 F300 X13.608 Y-77.231
G01 F300 X13.668 Y-77.274
G01 F300 X13.729 Y-77.301
G01 F300 X14.350 Y-77.508
G01 F300 X14.350 Y-78.432
G01 F300 X13.729 Y-78.639
G01 F300 X13.668 Y-78.666
G01 F300 X13.608 Y-78.710
G01 F300 X13.559 Y-78.764
G01 F300 X13.523 Y-78.827
G01 F300 X13.500 Y-78.897
G01 F300 X13.492 Y-78.970
G01 F300 X13.500 Y-79.043
G01 F300 X13.523 Y-79.113
G01 F300 X13.559 Y-79.176
G01 F300 X13.608 Y-79.231
G01 F300 X13.668 Y-79.274
G01 F300 X13.735 Y-79.303
G01 F300 X13.806 Y-79.319
G01 F300 X13.880 Y-79.319
G01 F300 X13.946 Y-79.304
G01 F300 X16.956 Y-78.301
G01 F300 X17.018 Y-78.274
G01 F300 X17.077 Y-78.231
G01 F300 X17.127 Y-78.176
G01 F300 X17.163 Y-78.113
G01 F300 X17.186 Y-78.043
G01 F300 X17.193 Y-77.970
G01 F300 X17.186 Y-77.897
G01 F300 X17.163 Y-77.827
G01 F300 X17.127 Y-77.764
G01 F300 X17.077 Y-77.710
G01 F300 X17.018 Y-77.666
G01 F300 X16.956 Y-77.639
G01 F300 X14.809 Y-76.923
G01 F300 X13.946 Y-76.636
G01 F300 X13.880 Y-76.621
G01 F300 X13.806 Y-76.621
G00 F3000 Z3.000
G00 F3000 X15.050 Y-77.741
G00 F1500 Z0
G01 F300 Z-0.200
G01 F300 X15.736 Y-77.970
G01 F300 X15.050 Y-78.199
G01 F300 X15.050 Y-77.741
G00 F3000 Z3.000
G00 F3000 X26.410 Y-78.651
G00 F1500 Z0
G01 F300 Z-0.200
G01 F300 X25.981 Y-78.742
G01 F300 X25.580 Y-78.921
G01 F300 X25.225 Y-79.179
G01 F300 X24.931 Y-79.505
G01 F300 X24.711 Y-79.886
G01 F300 X24.575 Y-80.303
G01 F300 X24.529 Y-80.740
G01 F300 X24.575 Y-81.177
G01 F300 X24.711 Y-81.594
G01 F300 X24.931 Y-81.975
G01 F300 X25.225 Y-82.301
G01 F300 X25.580 Y-82.559
G01 F300 X25.981 Y-82.738
G01 F300 X26.410 Y-82.829
G01 F300 X26.850 Y-82.829
G01 F300 X27.279 Y-82.738
G01 F300 X27.680 Y-82.559
G01 F300 X28.036 Y-82.301
G01 F300 X28.329 Y-81.975
G01 F300 X28.549 Y-81.594
G01 F300 X28.685 Y-81.177
G01 F300 X28.731 Y-80.740
G01 F300 X28.685 Y-80.303
G01 F300 X28.549 Y-79.886
G01 F300 X28.329 Y-79.505
G01 F300 X28.036 Y-79.179
G01 F300 X27.680 Y-78.921
G01 F300 X27.279 Y-78.742
G01 F300 X26.850 Y-78.651
G01 F300 X26.410 Y-78.651
G00 F3000 Z3.000
G00 F3000 X3.550 Y-78.651
G00 F1500 Z0
G01 F300 Z-0.200
G01 F300 X3.121 Y-78.742
G01 F300 X2.720 Y-78.921
G01 F300 X2.365 Y-79.179
G01 F300 X2.071 Y-79.505
G01 F300 X1.851 Y-79.886
G01 F300 X1.715 Y-80.303
G01 F300 X1.669 Y-80.740
G01 F300 X1.715 Y-81.177
G01 F300 X1.851 Y-81.594
G01 F300 X2.071 Y-81.975
G01 F300 X2.365 Y-82.301
G01 F300 X2.720 Y-82.559
G01 F300 X3.121 Y-82.738
G01 F300 X3.550 Y-82.829
G01 F300 X3.990 Y-82.829
G01 F300 X4.419 Y-82.738
G01 F300 X4.820 Y-82.559
G01 F300 X5.176 Y-82.301
G01 F300 X5.469 Y-81.975
G01 F300 X5.689 Y-81.594
G01 F300 X5.825 Y-81.177
G01 F300 X5.871 Y-80.740
G01 F300 X5.825 Y-80.303
G01 F300 X5.689 Y-79.886
G01 F300 X5.469 Y-79.505
G01 F300 X5.176 Y-79.179
G01 F300 X4.820 Y-78.921
G01 F300 X4.419 Y-78.742
G01 F300 X3.990 Y-78.651
G01 F300 X3.550 Y-78.651
G00 F3000 Z3.000
G00 F3000 X15.092 Y-79.478
G00 F1500 Z0
G01 F300 Z-0.200
G01 F300 X15.029 Y-79.492
G01 F300 X14.447 Y-79.637
G01 F300 X14.389 Y-79.663
G01 F300 X14.094 Y-79.811
G01 F300 X14.039 Y-79.851
G01 F300 X13.746 Y-80.144
G01 F300 X13.702 Y-80.193
G01 F300 X13.666 Y-80.256
G01 F300 X13.520 Y-80.694
G01 F300 X13.500 Y-80.754
G01 F300 X13.493 Y-80.822
G01 F300 X13.493 Y-81.118
G01 F300 X13.500 Y-81.186
G01 F300 X13.520 Y-81.246
G01 F300 X13.666 Y-81.684
G01 F300 X13.702 Y-81.748
G01 F300 X13.746 Y-81.796
G01 F300 X13.896 Y-81.946
G01 F300 X13.953 Y-81.988
G01 F300 X14.020 Y-82.018
G01 F300 X14.092 Y-82.033
G01 F300 X14.165 Y-82.033
G01 F300 X14.237 Y-82.018
G01 F300 X14.304 Y-81.988
G01 F300 X14.363 Y-81.945
G01 F300 X14.412 Y-81.890
G01 F300 X14.449 Y-81.827
G01 F300 X14.472 Y-81.757
G01 F300 X14.479 Y-81.684
G01 F300 X14.472 Y-81.611
G01 F300 X14.449 Y-81.542
G01 F300 X14.412 Y-81.478
G01 F300 X14.368 Y-81.430
G01 F300 X14.290 Y-81.351
G01 F300 X14.193 Y-81.060
G01 F300 X14.193 Y-80.880
G01 F300 X14.290 Y-80.589
G01 F300 X14.479 Y-80.400
G01 F300 X14.680 Y-80.299
G01 F300 X15.175 Y-80.176
G01 F300 X15.511 Y-80.176
G01 F300 X16.006 Y-80.300
G01 F300 X16.207 Y-80.400
G01 F300 X16.396 Y-80.589
G01 F300 X16.493 Y-80.880
G01 F300 X16.493 Y-81.060
G01 F300 X16.396 Y-81.351
G01 F300 X16.317 Y-81.430
G01 F300 X16.274 Y-81.478
G01 F300 X16.237 Y-81.542
G01 F300 X16.214 Y-81.611
G01 F300 X16.207 Y-81.684
G01 F300 X16.214 Y-81.757
G01 F300 X16.237 Y-81.827
G01 F300 X16.274 Y-81.890
G01 F300 X16.323 Y-81.945
G01 F300 X16.382 Y-81.988
G01 F300 X16.449 Y-82.018
G01 F300 X16.521 Y-82.033
G01 F300 X16.594 Y-82.033
G01 F300 X16.666 Y-82.018
G01 F300 X16.732 Y-81.988
G01 F300 X16.790 Y-81.946
G01 F300 X16.940 Y-81.796
G01 F300 X16.984 Y-81.748
G01 F300 X17.020 Y-81.684
G01 F300 X17.166 Y-81.246
G01 F300 X17.186 Y-81.186
G01 F300 X17.193 Y-81.118
G01 F300 X17.193 Y-80.822
G01 F300 X17.186 Y-80.754
G01 F300 X17.166 Y-80.694
G01 F300 X17.020 Y-80.256
G01 F300 X16.984 Y-80.193
G01 F300 X16.940 Y-80.144
G01 F300 X16.647 Y-79.851
G01 F300 X16.591 Y-79.811
G01 F300 X16.296 Y-79.663
G01 F300 X16.239 Y-79.637
G01 F300 X15.657 Y-79.492
G01 F300 X15.594 Y-79.478
G01 F300 X15.092 Y-79.478
G00 F3000 Z3.000
G00 F3000 X3.540 Y-2.351
G00 F1500 Z0
G01 F300 Z-0.200
G01 F300 X3.090 Y-2.447
G01 F300 X2.669 Y-2.634
G01 F300 X2.297 Y-2.904
G01 F300 X1.989 Y-3.246
G01 F300 X1.759 Y-3.645
G01 F300 X1.617 Y-4.082
G01 F300 X1.569 Y-4.540
G01 F300 X1.617 Y-4.998
G01 F300 X1.759 Y-5.435
G01 F300 X1.989 Y-5.834
G01 F300 X2.297 Y-6.176
G01 F300 X2.669 Y-6.446
G01 F300 X3.090 Y-6.633
G01 F300 X3.540 Y-6.729
G01 F300 X4.000 Y-6.729
G01 F300 X4.450 Y-6.633
G01 F300 X4.871 Y-6.446
G01 F300 X5.243 Y-6.176
G01 F300 X5.551 Y-5.834
G01 F300 X5.781 Y-5.435
G01 F300 X5.923 Y-4.998
G01 F300 X5.971 Y-4.540
G01 F300 X5.923 Y-4.082
G01 F300 X5.781 Y-3.645
G01 F300 X5.551 Y-3.246
G01 F300 X5.243 Y-2.904
G01 F300 X4.871 Y-2.634
G01 F300 X4.450 Y-2.447
G01 F300 X4.000 Y-2.351
G01 F300 X3.540 Y-2.351
G00 F3000 Z3.000
G00 F3000 X26.400 Y-2.351
G00 F1500 Z0
G01 F300 Z-0.200
G01 F300 X25.950 Y-2.447
G01 F300 X25.529 Y-2.634
G01 F300 X25.157 Y-2.904
G01 F300 X24.849 Y-3.246
G01 F300 X24.619 Y-3.645
G01 F300 X24.477 Y-4.082
G01 F300 X24.429 Y-4.540
G01 F300 X24.477 Y-4.998
G01 F300 X24.619 Y-5.435
G01 F300 X24.849 Y-5.834
G01 F300 X25.157 Y-6.176
G01 F300 X25.529 Y-6.446
G01 F300 X25.950 Y-6.633
G01 F300 X26.400 Y-6.729
G01 F300 X26.860 Y-6.729
G01 F300 X27.310 Y-6.633
G01 F300 X27.731 Y-6.446
G01 F300 X28.103 Y-6.176
G01 F300 X28.411 Y-5.834
G01 F300 X28.641 Y-5.435
G01 F300 X28.783 Y-4.998
G01 F300 X28.831 Y-4.540
G01 F300 X28.783 Y-4.082
G01 F300 X28.641 Y-3.645
G01 F300 X28.411 Y-3.246
G01 F300 X28.103 Y-2.904
G01 F300 X27.731 Y-2.634
G01 F300 X27.310 Y-2.447
G01 F300 X26.860 Y-2.351
G01 F300 X26.400 Y-2.351
G00 F3000 Z3.000
G00 F3000 X20.076 Y-5.140
G00 F1500 Z0
G01 F300 Z-0.200
G01 F300 X19.677 Y-5.224
G01 F300 X19.328 Y-5.380
G01 F300 X18.580 Y-5.380
G01 F300 X18.580 Y-6.144
G01 F300 X18.498 Y-6.286
G01 F300 X18.372 Y-6.674
G01 F300 X18.330 Y-7.070
G01 F300 X18.330 Y-22.626
G01 F300 X17.534 Y-23.422
G01 F300 X17.272 Y-23.713
G01 F300 X17.068 Y-24.066
G01 F300 X16.942 Y-24.454
G01 F300 X16.900 Y-24.850
G01 F300 X16.900 Y-38.410
G01 F300 X16.942 Y-38.806
G01 F300 X17.068 Y-39.194
G01 F300 X17.272 Y-39.547
G01 F300 X17.534 Y-39.838
G01 F300 X21.519 Y-43.823
G01 F300 X21.844 Y-44.060
G01 F300 X22.217 Y-44.226
G01 F300 X22.616 Y-44.310
G01 F300 X23.024 Y-44.310
G01 F300 X23.423 Y-44.226
G01 F300 X23.796 Y-44.060
G01 F300 X24.126 Y-43.820
G01 F300 X24.398 Y-43.517
G01 F300 X24.603 Y-43.164
G01 F300 X24.729 Y-42.776
G01 F300 X24.771 Y-42.370
G01 F300 X24.729 Y-41.964
G01 F300 X24.603 Y-41.576
G01 F300 X24.398 Y-41.223
G01 F300 X24.136 Y-40.932
G01 F300 X20.800 Y-37.596
G01 F300 X20.800 Y-26.973
G01 F300 X21.160 Y-27.049
G01 F300 X21.620 Y-27.049
G01 F300 X22.070 Y-26.953
G01 F300 X22.491 Y-26.766
G01 F300 X22.863 Y-26.496
G01 F300 X23.171 Y-26.154
G01 F300 X23.401 Y-25.755
G01 F300 X23.543 Y-25.318
G01 F300 X23.591 Y-24.860
G01 F300 X23.543 Y-24.402
G01 F300 X23.401 Y-23.965
G01 F300 X23.171 Y-23.566
G01 F300 X22.863 Y-23.224
G01 F300 X22.491 Y-22.954
G01 F300 X22.230 Y-22.838
G01 F300 X22.230 Y-7.070
G01 F300 X22.189 Y-6.674
G01 F300 X22.063 Y-6.286
G01 F300 X21.980 Y-6.144
G01 F300 X21.980 Y-5.380
G01 F300 X21.232 Y-5.380
G01 F300 X20.883 Y-5.224
G01 F300 X20.484 Y-5.140
G01 F300 X20.076 Y-5.140
G00 F3000 Z3.000
G00 F3000 X8.646 Y-5.140
G00 F1500 Z0
G01 F300 Z-0.200
G01 F300 X8.247 Y-5.224
G01 F300 X7.874 Y-5.390
G01 F300 X7.544 Y-5.630
G01 F300 X7.272 Y-5.933
G01 F300 X7.068 Y-6.286
G01 F300 X6.942 Y-6.674
G01 F300 X6.900 Y-7.070
G01 F300 X6.900 Y-15.419
G01 F300 X6.604 Y-15.550
G01 F300 X6.279 Y-15.787
G01 F300 X2.454 Y-19.612
G01 F300 X2.192 Y-19.903
G01 F300 X1.988 Y-20.256
G01 F300 X1.862 Y-20.644
G01 F300 X1.820 Y-21.040
G01 F300 X1.820 Y-43.920
G01 F300 X1.862 Y-44.316
G01 F300 X1.988 Y-44.704
G01 F300 X2.192 Y-45.057
G01 F300 X2.454 Y-45.348
G01 F300 X3.739 Y-46.633
G01 F300 X4.064 Y-46.870
G01 F300 X4.437 Y-47.036
G01 F300 X4.836 Y-47.120
G01 F300 X10.324 Y-47.120
G01 F300 X10.723 Y-47.036
G01 F300 X11.096 Y-46.870
G01 F300 X11.426 Y-46.630
G01 F300 X11.698 Y-46.327
G01 F300 X11.902 Y-45.974
G01 F300 X12.029 Y-45.586
G01 F300 X12.071 Y-45.180
G01 F300 X12.029 Y-44.774
G01 F300 X11.902 Y-44.386
G01 F300 X11.698 Y-44.033
G01 F300 X11.426 Y-43.730
G01 F300 X11.096 Y-43.490
G01 F300 X10.723 Y-43.324
G01 F300 X10.324 Y-43.240
G01 F300 X5.854 Y-43.240
G01 F300 X5.720 Y-43.106
G01 F300 X5.720 Y-21.854
G01 F300 X8.394 Y-19.180
G01 F300 X9.054 Y-19.180
G01 F300 X9.453 Y-19.096
G01 F300 X9.826 Y-18.930
G01 F300 X10.156 Y-18.690
G01 F300 X10.428 Y-18.387
G01 F300 X10.633 Y-18.034
G01 F300 X10.758 Y-17.646
G01 F300 X10.800 Y-17.250
G01 F300 X10.800 Y-9.020
G01 F300 X11.594 Y-9.020
G01 F300 X11.993 Y-8.936
G01 F300 X12.342 Y-8.780
G01 F300 X13.090 Y-8.780
G01 F300 X13.090 Y-8.016
G01 F300 X13.173 Y-7.874
G01 F300 X13.299 Y-7.486
G01 F300 X13.341 Y-7.080
G01 F300 X13.299 Y-6.674
G01 F300 X13.173 Y-6.286
G01 F300 X13.090 Y-6.144
G01 F300 X13.090 Y-5.380
G01 F300 X12.342 Y-5.380
G01 F300 X11.993 Y-5.224
G01 F300 X11.594 Y-5.140
G01 F300 X8.646 Y-5.140
G00 F3000 Z3.000
G00 F3000 X23.757 Y-8.918
G00 F1500 Z0
G01 F300 Z-0.200
G01 F300 X23.665 Y-8.937
G01 F300 X23.579 Y-8.976
G01 F300 X23.502 Y-9.031
G01 F300 X23.439 Y-9.101
G01 F300 X23.392 Y-9.183
G01 F300 X23.363 Y-9.272
G01 F300 X23.354 Y-9.356
G01 F300 X23.354 Y-12.424
G01 F300 X23.363 Y-12.508
G01 F300 X23.392 Y-12.597
G01 F300 X23.439 Y-12.679
G01 F300 X23.502 Y-12.749
G01 F300 X23.579 Y-12.805
G01 F300 X23.665 Y-12.843
G01 F300 X23.757 Y-12.862
G01 F300 X23.851 Y-12.862
G01 F300 X23.944 Y-12.843
G01 F300 X24.030 Y-12.805
G01 F300 X24.106 Y-12.749
G01 F300 X24.169 Y-12.679
G01 F300 X24.216 Y-12.597
G01 F300 X24.246 Y-12.508
G01 F300 X24.254 Y-12.424
G01 F300 X24.254 Y-9.356
G01 F300 X24.246 Y-9.272
G01 F300 X24.216 Y-9.183
G01 F300 X24.169 Y-9.101
G01 F300 X24.106 Y-9.031
G01 F300 X24.030 Y-8.976
G01 F300 X23.944 Y-8.937
G01 F300 X23.851 Y-8.918
G01 F300 X23.757 Y-8.918
G00 F3000 Z3.000
G00 F3000 X4.707 Y-10.188
G00 F1500 Z0
G01 F300 Z-0.200
G01 F300 X4.615 Y-10.207
G01 F300 X4.529 Y-10.245
G01 F300 X4.452 Y-10.301
G01 F300 X4.389 Y-10.371
G01 F300 X4.342 Y-10.453
G01 F300 X4.313 Y-10.542
G01 F300 X4.304 Y-10.626
G01 F300 X4.304 Y-11.711
G01 F300 X3.183 Y-11.711
G01 F300 X3.091 Y-11.731
G01 F300 X3.005 Y-11.769
G01 F300 X2.929 Y-11.825
G01 F300 X2.866 Y-11.895
G01 F300 X2.818 Y-11.976
G01 F300 X2.789 Y-12.066
G01 F300 X2.779 Y-12.160
G01 F300 X2.789 Y-12.254
G01 F300 X2.818 Y-12.344
G01 F300 X2.866 Y-12.425
G01 F300 X2.929 Y-12.495
G01 F300 X3.005 Y-12.551
G01 F300 X3.091 Y-12.589
G01 F300 X3.183 Y-12.609
G01 F300 X4.304 Y-12.609
G01 F300 X4.304 Y-13.694
G01 F300 X4.313 Y-13.778
G01 F300 X4.342 Y-13.867
G01 F300 X4.389 Y-13.949
G01 F300 X4.452 Y-14.019
G01 F300 X4.529 Y-14.075
G01 F300 X4.615 Y-14.113
G01 F300 X4.707 Y-14.132
G01 F300 X4.801 Y-14.132
G01 F300 X4.894 Y-14.113
G01 F300 X4.980 Y-14.075
G01 F300 X5.056 Y-14.019
G01 F300 X5.119 Y-13.949
G01 F300 X5.166 Y-13.867
G01 F300 X5.196 Y-13.778
G01 F300 X5.204 Y-13.694
G01 F300 X5.204 Y-12.609
G01 F300 X6.325 Y-12.609
G01 F300 X6.417 Y-12.589
G01 F300 X6.504 Y-12.551
G01 F300 X6.580 Y-12.495
G01 F300 X6.643 Y-12.425
G01 F300 X6.690 Y-12.344
G01 F300 X6.719 Y-12.254
G01 F300 X6.729 Y-12.160
G01 F300 X6.719 Y-12.066
G01 F300 X6.690 Y-11.976
G01 F300 X6.643 Y-11.895
G01 F300 X6.580 Y-11.825
G01 F300 X6.504 Y-11.769
G01 F300 X6.417 Y-11.731
G01 F300 X6.325 Y-11.711
G01 F300 X5.204 Y-11.711
G01 F300 X5.204 Y-10.626
G01 F300 X5.196 Y-10.542
G01 F300 X5.166 Y-10.453
G01 F300 X5.119 Y-10.371
G01 F300 X5.056 Y-10.301
G01 F300 X4.980 Y-10.245
G01 F300 X4.894 Y-10.207
G01 F300 X4.801 Y-10.188
G01 F300 X4.707 Y-10.188
G00 F3000 Z3.000
G00 F3000 X25.452 Y-15.047
G00 F1500 Z0
G01 F300 Z-0.200
G01 F300 X25.360 Y-15.066
G01 F300 X25.274 Y-15.105
G01 F300 X25.197 Y-15.160
G01 F300 X25.134 Y-15.230
G01 F300 X25.087 Y-15.312
G01 F300 X25.058 Y-15.402
G01 F300 X25.048 Y-15.495
G01 F300 X25.058 Y-15.589
G01 F300 X25.087 Y-15.679
G01 F300 X25.134 Y-15.760
G01 F300 X25.197 Y-15.831
G01 F300 X25.274 Y-15.886
G01 F300 X25.349 Y-15.920
G01 F300 X25.763 Y-16.058
G01 F300 X25.763 Y-16.599
G01 F300 X25.349 Y-16.738
G01 F300 X25.274 Y-16.771
G01 F300 X25.197 Y-16.827
G01 F300 X25.134 Y-16.897
G01 F300 X25.087 Y-16.978
G01 F300 X25.058 Y-17.068
G01 F300 X25.048 Y-17.162
G01 F300 X25.058 Y-17.256
G01 F300 X25.087 Y-17.345
G01 F300 X25.134 Y-17.427
G01 F300 X25.197 Y-17.497
G01 F300 X25.274 Y-17.553
G01 F300 X25.360 Y-17.591
G01 F300 X25.452 Y-17.611
G01 F300 X25.546 Y-17.611
G01 F300 X25.629 Y-17.593
G01 F300 X28.149 Y-16.753
G01 F300 X28.225 Y-16.719
G01 F300 X28.301 Y-16.664
G01 F300 X28.364 Y-16.594
G01 F300 X28.411 Y-16.512
G01 F300 X28.440 Y-16.422
G01 F300 X28.450 Y-16.329
G01 F300 X28.440 Y-16.235
G01 F300 X28.411 Y-16.145
G01 F300 X28.364 Y-16.063
G01 F300 X28.301 Y-15.993
G01 F300 X28.225 Y-15.938
G01 F300 X28.149 Y-15.904
G01 F300 X25.629 Y-15.064
G01 F300 X25.546 Y-15.047
G01 F300 X25.452 Y-15.047
G00 F3000 Z3.000
G00 F3000 X25.809 Y-17.547
G00 F1500 Z0
G01 F300 Z-0.200
G01 F300 X25.717 Y-17.566
G01 F300 X25.646 Y-17.598
G01 F300 X25.389 Y-17.726
G01 F300 X25.316 Y-17.779
G01 F300 X25.253 Y-17.849
G01 F300 X25.213 Y-17.918
G01 F300 X25.085 Y-18.175
G01 F300 X25.058 Y-18.259
G01 F300 X25.049 Y-18.342
G01 F300 X25.049 Y-18.720
G01 F300 X25.058 Y-18.803
G01 F300 X25.085 Y-18.887
G01 F300 X25.085 Y-18.888
G01 F300 X25.058 Y-18.973
G01 F300 X25.048 Y-19.067
G01 F300 X25.058 Y-19.160
G01 F300 X25.087 Y-19.250
G01 F300 X25.134 Y-19.332
G01 F300 X25.197 Y-19.402
G01 F300 X25.274 Y-19.457
G01 F300 X25.360 Y-19.496
G01 F300 X25.452 Y-19.515
G01 F300 X27.213 Y-19.515
G01 F300 X27.305 Y-19.496
G01 F300 X27.391 Y-19.457
G01 F300 X27.468 Y-19.402
G01 F300 X27.531 Y-19.332
G01 F300 X27.578 Y-19.250
G01 F300 X27.607 Y-19.160
G01 F300 X27.617 Y-19.067
G01 F300 X27.607 Y-18.973
G01 F300 X27.578 Y-18.883
G01 F300 X27.531 Y-18.802
G01 F300 X27.468 Y-18.732
G01 F300 X27.391 Y-18.676
G01 F300 X27.305 Y-18.638
G01 F300 X27.214 Y-18.618
G01 F300 X25.949 Y-18.602
G01 F300 X25.949 Y-18.458
G01 F300 X25.954 Y-18.449
G01 F300 X25.964 Y-18.444
G01 F300 X27.213 Y-18.444
G01 F300 X27.305 Y-18.424
G01 F300 X27.391 Y-18.386
G01 F300 X27.468 Y-18.330
G01 F300 X27.531 Y-18.260
G01 F300 X27.578 Y-18.179
G01 F300 X27.607 Y-18.089
G01 F300 X27.617 Y-17.995
G01 F300 X27.607 Y-17.902
G01 F300 X27.578 Y-17.812
G01 F300 X27.531 Y-17.730
G01 F300 X27.468 Y-17.660
G01 F300 X27.391 Y-17.605
G01 F300 X27.305 Y-17.566
G01 F300 X27.213 Y-17.547
G01 F300 X25.809 Y-17.547
G00 F3000 Z3.000
G00 F3000 X25.452 Y-19.809
G00 F1500 Z0
G01 F300 Z-0.200
G01 F300 X25.360 Y-19.828
G01 F300 X25.274 Y-19.867
G01 F300 X25.197 Y-19.922
G01 F300 X25.134 Y-19.992
G01 F300 X25.087 Y-20.074
G01 F300 X25.058 Y-20.163
G01 F300 X25.048 Y-20.257
G01 F300 X25.058 Y-20.351
G01 F300 X25.087 Y-20.441
G01 F300 X25.134 Y-20.522
G01 F300 X25.197 Y-20.593
G01 F300 X25.274 Y-20.648
G01 F300 X25.360 Y-20.686
G01 F300 X25.452 Y-20.706
G01 F300 X26.582 Y-20.706
G01 F300 X26.661 Y-20.745
G01 F300 X26.677 Y-20.762
G01 F300 X26.716 Y-20.839
G01 F300 X26.716 Y-20.982
G01 F300 X26.724 Y-21.065
G01 F300 X26.754 Y-21.155
G01 F300 X26.801 Y-21.237
G01 F300 X26.801 Y-21.237
G01 F300 X25.809 Y-21.237
G01 F300 X25.717 Y-21.257
G01 F300 X25.646 Y-21.288
G01 F300 X25.389 Y-21.417
G01 F300 X25.316 Y-21.470
G01 F300 X25.253 Y-21.540
G01 F300 X25.213 Y-21.608
G01 F300 X25.085 Y-21.865
G01 F300 X25.058 Y-21.949
G01 F300 X25.049 Y-22.032
G01 F300 X25.049 Y-22.530
G01 F300 X25.058 Y-22.613
G01 F300 X25.085 Y-22.697
G01 F300 X25.213 Y-22.954
G01 F300 X25.253 Y-23.022
G01 F300 X25.316 Y-23.092
G01 F300 X25.393 Y-23.148
G01 F300 X25.479 Y-23.186
G01 F300 X25.571 Y-23.206
G01 F300 X25.665 Y-23.206
G01 F300 X25.758 Y-23.186
G01 F300 X25.844 Y-23.148
G01 F300 X25.920 Y-23.092
G01 F300 X25.983 Y-23.022
G01 F300 X26.030 Y-22.941
G01 F300 X26.059 Y-22.851
G01 F300 X26.069 Y-22.757
G01 F300 X26.059 Y-22.664
G01 F300 X26.032 Y-22.579
G01 F300 X25.949 Y-22.413
G01 F300 X25.949 Y-22.149
G01 F300 X25.954 Y-22.140
G01 F300 X25.963 Y-22.135
G01 F300 X26.132 Y-22.979
G01 F300 X26.158 Y-23.060
G01 F300 X26.206 Y-23.141
G01 F300 X26.269 Y-23.211
G01 F300 X26.345 Y-23.267
G01 F300 X26.431 Y-23.305
G01 F300 X26.523 Y-23.325
G01 F300 X26.856 Y-23.325
G01 F300 X26.948 Y-23.305
G01 F300 X27.019 Y-23.274
G01 F300 X27.276 Y-23.145
G01 F300 X27.349 Y-23.092
G01 F300 X27.412 Y-23.022
G01 F300 X27.451 Y-22.954
G01 F300 X27.580 Y-22.697
G01 F300 X27.607 Y-22.613
G01 F300 X27.616 Y-22.530
G01 F300 X27.616 Y-22.032
G01 F300 X27.607 Y-21.949
G01 F300 X27.580 Y-21.865
G01 F300 X27.451 Y-21.608
G01 F300 X27.412 Y-21.540
G01 F300 X27.349 Y-21.470
G01 F300 X27.276 Y-21.417
G01 F300 X27.262 Y-21.410
G01 F300 X27.305 Y-21.400
G01 F300 X27.391 Y-21.362
G01 F300 X27.468 Y-21.307
G01 F300 X27.531 Y-21.237
G01 F300 X27.578 Y-21.155
G01 F300 X27.607 Y-21.065
G01 F300 X27.616 Y-20.982
G01 F300 X27.616 Y-20.723
G01 F300 X27.607 Y-20.640
G01 F300 X27.580 Y-20.556
G01 F300 X27.548 Y-20.492
G01 F300 X27.578 Y-20.441
G01 F300 X27.607 Y-20.351
G01 F300 X27.617 Y-20.257
G01 F300 X27.607 Y-20.163
G01 F300 X27.578 Y-20.074
G01 F300 X27.531 Y-19.992
G01 F300 X27.468 Y-19.922
G01 F300 X27.391 Y-19.867
G01 F300 X27.305 Y-19.828
G01 F300 X27.213 Y-19.809
G01 F300 X25.452 Y-19.809
G00 F3000 Z3.000
G00 F3000 X9.190 Y-22.660
G00 F1500 Z0
G01 F300 Z-0.200
G01 F300 X9.190 Y-27.060
G01 F300 X9.440 Y-27.060
G01 F300 X9.440 Y-38.840
G01 F300 X9.482 Y-39.236
G01 F300 X9.607 Y-39.624
G01 F300 X9.812 Y-39.977
G01 F300 X10.074 Y-40.268
G01 F300 X16.439 Y-46.633
G01 F300 X16.764 Y-46.870
G01 F300 X17.137 Y-47.036
G01 F300 X17.536 Y-47.120
G01 F300 X17.944 Y-47.120
G01 F300 X17.978 Y-47.113
G01 F300 X18.211 Y-47.346
G01 F300 X18.409 Y-47.490
G01 F300 X18.639 Y-47.592
G01 F300 X18.884 Y-47.645
G01 F300 X25.430 Y-47.645
G01 F300 X25.430 Y-54.146
G01 F300 X21.425 Y-54.146
G01 F300 X21.179 Y-54.198
G01 F300 X20.949 Y-54.300
G01 F300 X20.751 Y-54.444
G01 F300 X16.666 Y-58.529
G01 F300 X16.508 Y-58.704
G01 F300 X16.485 Y-58.745
G01 F300 X16.179 Y-58.967
G01 F300 X13.420 Y-61.726
G01 F300 X11.421 Y-59.727
G01 F300 X11.096 Y-59.490
G01 F300 X10.723 Y-59.324
G01 F300 X10.324 Y-59.240
G01 F300 X9.916 Y-59.240
G01 F300 X9.517 Y-59.324
G01 F300 X9.144 Y-59.490
G01 F300 X8.814 Y-59.730
G01 F300 X8.542 Y-60.033
G01 F300 X8.338 Y-60.386
G01 F300 X8.212 Y-60.774
G01 F300 X8.169 Y-61.180
G01 F300 X8.212 Y-61.586
G01 F300 X8.338 Y-61.974
G01 F300 X8.542 Y-62.327
G01 F300 X8.804 Y-62.618
G01 F300 X10.666 Y-64.480
G01 F300 X8.804 Y-66.342
G01 F300 X8.542 Y-66.633
G01 F300 X8.338 Y-66.986
G01 F300 X8.212 Y-67.374
G01 F300 X8.169 Y-67.780
G01 F300 X8.212 Y-68.186
G01 F300 X8.338 Y-68.574
G01 F300 X8.542 Y-68.927
G01 F300 X8.804 Y-69.218
G01 F300 X10.349 Y-70.763
G01 F300 X10.674 Y-71.000
G01 F300 X11.047 Y-71.166
G01 F300 X11.446 Y-71.250
G01 F300 X23.024 Y-71.250
G01 F300 X23.423 Y-71.166
G01 F300 X23.796 Y-71.000
G01 F300 X24.126 Y-70.760
G01 F300 X24.398 Y-70.457
G01 F300 X24.603 Y-70.104
G01 F300 X24.729 Y-69.716
G01 F300 X24.771 Y-69.310
G01 F300 X24.729 Y-68.904
G01 F300 X24.603 Y-68.516
G01 F300 X24.398 Y-68.163
G01 F300 X24.126 Y-67.860
G01 F300 X23.796 Y-67.620
G01 F300 X23.423 Y-67.454
G01 F300 X23.024 Y-67.370
G01 F300 X13.285 Y-67.370
G01 F300 X18.796 Y-61.858
G01 F300 X19.058 Y-61.567
G01 F300 X19.262 Y-61.214
G01 F300 X19.389 Y-60.826
G01 F300 X19.431 Y-60.420
G01 F300 X19.389 Y-60.014
G01 F300 X19.262 Y-59.626
G01 F300 X19.151 Y-59.434
G01 F300 X22.050 Y-56.535
G01 F300 X26.756 Y-56.535
G01 F300 X27.001 Y-56.482
G01 F300 X27.231 Y-56.380
G01 F300 X27.434 Y-56.233
G01 F300 X27.602 Y-56.046
G01 F300 X27.727 Y-55.829
G01 F300 X27.805 Y-55.590
G01 F300 X27.830 Y-55.350
G01 F300 X27.830 Y-46.440
G01 F300 X27.805 Y-46.200
G01 F300 X27.727 Y-45.962
G01 F300 X27.602 Y-45.744
G01 F300 X27.434 Y-45.557
G01 F300 X27.231 Y-45.410
G01 F300 X27.001 Y-45.308
G01 F300 X26.756 Y-45.256
G01 F300 X19.683 Y-45.256
G01 F300 X19.691 Y-45.180
G01 F300 X19.649 Y-44.774
G01 F300 X19.523 Y-44.386
G01 F300 X19.318 Y-44.033
G01 F300 X19.056 Y-43.742
G01 F300 X13.340 Y-38.026
G01 F300 X13.340 Y-27.060
G01 F300 X13.590 Y-27.060
G01 F300 X13.590 Y-22.660
G01 F300 X9.190 Y-22.660
G00 F3000 Z3.000
G00 F3000 X25.809 Y-23.499
G00 F1500 Z0
G01 F300 Z-0.200
G01 F300 X25.717 Y-23.519
G01 F300 X25.646 Y-23.550
G01 F300 X25.389 Y-23.679
G01 F300 X25.316 Y-23.732
G01 F300 X25.253 Y-23.802
G01 F300 X25.213 Y-23.870
G01 F300 X25.085 Y-24.127
G01 F300 X25.058 Y-24.211
G01 F300 X25.048 Y-24.305
G01 F300 X25.058 Y-24.399
G01 F300 X25.087 Y-24.488
G01 F300 X25.134 Y-24.570
G01 F300 X25.197 Y-24.640
G01 F300 X25.274 Y-24.695
G01 F300 X25.360 Y-24.734
G01 F300 X25.452 Y-24.753
G01 F300 X25.546 Y-24.753
G01 F300 X25.639 Y-24.734
G01 F300 X25.725 Y-24.695
G01 F300 X25.801 Y-24.640
G01 F300 X25.864 Y-24.570
G01 F300 X25.904 Y-24.501
G01 F300 X25.953 Y-24.402
G01 F300 X25.964 Y-24.396
G01 F300 X28.046 Y-24.396
G01 F300 X28.139 Y-24.377
G01 F300 X28.225 Y-24.338
G01 F300 X28.301 Y-24.283
G01 F300 X28.364 Y-24.213
G01 F300 X28.411 Y-24.131
G01 F300 X28.440 Y-24.041
G01 F300 X28.450 Y-23.948
G01 F300 X28.440 Y-23.854
G01 F300 X28.411 Y-23.764
G01 F300 X28.364 Y-23.683
G01 F300 X28.301 Y-23.612
G01 F300 X28.225 Y-23.557
G01 F300 X28.139 Y-23.519
G01 F300 X28.046 Y-23.499
G01 F300 X25.809 Y-23.499
G00 F3000 Z3.000
G00 F3000 X27.833 Y-24.690
G00 F1500 Z0
G01 F300 Z-0.200
G01 F300 X27.741 Y-24.709
G01 F300 X27.654 Y-24.747
G01 F300 X27.582 Y-24.800
G01 F300 X27.463 Y-24.919
G01 F300 X27.391 Y-24.867
G01 F300 X27.305 Y-24.828
G01 F300 X27.213 Y-24.809
G01 F300 X25.452 Y-24.809
G01 F300 X25.360 Y-24.828
G01 F300 X25.274 Y-24.867
G01 F300 X25.197 Y-24.922
G01 F300 X25.134 Y-24.992
G01 F300 X25.087 Y-25.074
G01 F300 X25.058 Y-25.163
G01 F300 X25.048 Y-25.257
G01 F300 X25.058 Y-25.351
G01 F300 X25.087 Y-25.441
G01 F300 X25.134 Y-25.522
G01 F300 X25.197 Y-25.593
G01 F300 X25.274 Y-25.648
G01 F300 X25.360 Y-25.686
G01 F300 X25.452 Y-25.706
G01 F300 X27.213 Y-25.706
G01 F300 X27.305 Y-25.686
G01 F300 X27.391 Y-25.648
G01 F300 X27.463 Y-25.596
G01 F300 X27.582 Y-25.715
G01 F300 X27.654 Y-25.767
G01 F300 X27.741 Y-25.805
G01 F300 X27.833 Y-25.825
G01 F300 X27.927 Y-25.825
G01 F300 X28.019 Y-25.805
G01 F300 X28.106 Y-25.767
G01 F300 X28.178 Y-25.715
G01 F300 X28.312 Y-25.581
G01 F300 X28.364 Y-25.522
G01 F300 X28.411 Y-25.441
G01 F300 X28.440 Y-25.351
G01 F300 X28.450 Y-25.257
G01 F300 X28.440 Y-25.163
G01 F300 X28.411 Y-25.074
G01 F300 X28.364 Y-24.992
G01 F300 X28.312 Y-24.934
G01 F300 X28.178 Y-24.800
G01 F300 X28.106 Y-24.747
G01 F300 X28.019 Y-24.709
G01 F300 X27.927 Y-24.690
G01 F300 X27.833 Y-24.690
G00 F3000 Z3.000
G00 F3000 X25.928 Y-25.880
G00 F1500 Z0
G01 F300 Z-0.200
G01 F300 X25.836 Y-25.900
G01 F300 X25.765 Y-25.931
G01 F300 X25.508 Y-26.060
G01 F300 X25.440 Y-26.109
G01 F300 X25.306 Y-26.243
G01 F300 X25.253 Y-26.302
G01 F300 X25.213 Y-26.370
G01 F300 X25.085 Y-26.627
G01 F300 X25.058 Y-26.711
G01 F300 X25.049 Y-26.794
G01 F300 X25.049 Y-27.172
G01 F300 X25.058 Y-27.256
G01 F300 X25.085 Y-27.340
G01 F300 X25.213 Y-27.597
G01 F300 X25.253 Y-27.665
G01 F300 X25.306 Y-27.724
G01 F300 X25.440 Y-27.857
G01 F300 X25.508 Y-27.907
G01 F300 X25.765 Y-28.035
G01 F300 X25.836 Y-28.067
G01 F300 X25.928 Y-28.087
G01 F300 X26.737 Y-28.087
G01 F300 X26.829 Y-28.067
G01 F300 X26.900 Y-28.035
G01 F300 X27.157 Y-27.907
G01 F300 X27.225 Y-27.857
G01 F300 X27.359 Y-27.724
G01 F300 X27.412 Y-27.665
G01 F300 X27.451 Y-27.597
G01 F300 X27.580 Y-27.340
G01 F300 X27.607 Y-27.256
G01 F300 X27.616 Y-27.172
G01 F300 X27.616 Y-26.794
G01 F300 X27.607 Y-26.711
G01 F300 X27.580 Y-26.627
G01 F300 X27.451 Y-26.370
G01 F300 X27.412 Y-26.302
G01 F300 X27.359 Y-26.243
G01 F300 X27.225 Y-26.109
G01 F300 X27.157 Y-26.060
G01 F300 X26.900 Y-25.931
G01 F300 X26.829 Y-25.900
G01 F300 X26.737 Y-25.880
G01 F300 X25.928 Y-25.880
G00 F3000 Z3.000
G00 F3000 X26.083 Y-26.777
G00 F1500 Z0
G01 F300 Z-0.200
G01 F300 X26.582 Y-26.777
G01 F300 X26.661 Y-26.817
G01 F300 X26.677 Y-26.833
G01 F300 X26.716 Y-26.910
G01 F300 X26.716 Y-27.056
G01 F300 X26.677 Y-27.134
G01 F300 X26.661 Y-27.150
G01 F300 X26.581 Y-27.190
G01 F300 X26.083 Y-27.190
G01 F300 X26.004 Y-27.150
G01 F300 X25.988 Y-27.134
G01 F300 X25.949 Y-27.056
G01 F300 X25.949 Y-26.911
G01 F300 X25.988 Y-26.832
G01 F300 X26.004 Y-26.817
G01 F300 X26.083 Y-26.777
G00 F3000 Z3.000
G00 F3000 X25.452 Y-29.928
G00 F1500 Z0
G01 F300 Z-0.200
G01 F300 X25.360 Y-29.947
G01 F300 X25.274 Y-29.986
G01 F300 X25.197 Y-30.041
G01 F300 X25.134 Y-30.111
G01 F300 X25.087 Y-30.193
G01 F300 X25.058 Y-30.282
G01 F300 X25.049 Y-30.366
G01 F300 X25.049 Y-31.934
G01 F300 X25.058 Y-32.018
G01 F300 X25.087 Y-32.107
G01 F300 X25.134 Y-32.189
G01 F300 X25.197 Y-32.259
G01 F300 X25.274 Y-32.315
G01 F300 X25.360 Y-32.353
G01 F300 X25.452 Y-32.372
G01 F300 X25.546 Y-32.372
G01 F300 X25.639 Y-32.353
G01 F300 X25.725 Y-32.315
G01 F300 X25.801 Y-32.259
G01 F300 X25.864 Y-32.189
G01 F300 X25.911 Y-32.107
G01 F300 X25.940 Y-32.018
G01 F300 X25.949 Y-31.934
G01 F300 X25.949 Y-31.462
G01 F300 X26.630 Y-32.143
G01 F300 X26.702 Y-32.195
G01 F300 X26.778 Y-32.229
G01 F300 X27.155 Y-32.355
G01 F300 X27.238 Y-32.372
G01 F300 X27.570 Y-32.372
G01 F300 X27.662 Y-32.353
G01 F300 X27.733 Y-32.321
G01 F300 X27.990 Y-32.193
G01 F300 X28.059 Y-32.143
G01 F300 X28.193 Y-32.009
G01 F300 X28.245 Y-31.951
G01 F300 X28.285 Y-31.882
G01 F300 X28.413 Y-31.625
G01 F300 X28.440 Y-31.541
G01 F300 X28.449 Y-31.458
G01 F300 X28.449 Y-30.842
G01 F300 X28.440 Y-30.759
G01 F300 X28.413 Y-30.675
G01 F300 X28.285 Y-30.418
G01 F300 X28.245 Y-30.349
G01 F300 X28.192 Y-30.291
G01 F300 X28.059 Y-30.157
G01 F300 X27.987 Y-30.105
G01 F300 X27.900 Y-30.066
G01 F300 X27.808 Y-30.047
G01 F300 X27.714 Y-30.047
G01 F300 X27.622 Y-30.066
G01 F300 X27.535 Y-30.105
G01 F300 X27.459 Y-30.160
G01 F300 X27.396 Y-30.230
G01 F300 X27.349 Y-30.312
G01 F300 X27.320 Y-30.402
G01 F300 X27.310 Y-30.495
G01 F300 X27.320 Y-30.589
G01 F300 X27.349 Y-30.679
G01 F300 X27.396 Y-30.760
G01 F300 X27.449 Y-30.819
G01 F300 X27.510 Y-30.881
G01 F300 X27.549 Y-30.958
G01 F300 X27.549 Y-31.342
G01 F300 X27.510 Y-31.419
G01 F300 X27.494 Y-31.435
G01 F300 X27.415 Y-31.475
G01 F300 X27.362 Y-31.475
G01 F300 X27.170 Y-31.411
G01 F300 X25.797 Y-30.038
G01 F300 X25.725 Y-29.986
G01 F300 X25.639 Y-29.947
G01 F300 X25.546 Y-29.928
G01 F300 X25.452 Y-29.928
G00 F3000 Z3.000
G00 F3000 X26.404 Y-32.428
G00 F1500 Z0
G01 F300 Z-0.200
G01 F300 X26.329 Y-32.444
G01 F300 X25.833 Y-32.568
G01 F300 X25.765 Y-32.598
G01 F300 X25.508 Y-32.726
G01 F300 X25.440 Y-32.776
G01 F300 X25.306 Y-32.910
G01 F300 X25.253 Y-32.968
G01 F300 X25.213 Y-33.037
G01 F300 X25.085 Y-33.294
G01 F300 X25.058 Y-33.378
G01 F300 X25.049 Y-33.461
G01 F300 X25.049 Y-33.720
G01 F300 X25.058 Y-33.803
G01 F300 X25.085 Y-33.887
G01 F300 X25.213 Y-34.144
G01 F300 X25.253 Y-34.213
G01 F300 X25.306 Y-34.271
G01 F300 X25.440 Y-34.405
G01 F300 X25.508 Y-34.455
G01 F300 X25.774 Y-34.587
G01 F300 X25.833 Y-34.613
G01 F300 X26.329 Y-34.738
G01 F300 X26.404 Y-34.753
G01 F300 X27.094 Y-34.753
G01 F300 X27.169 Y-34.738
G01 F300 X27.666 Y-34.613
G01 F300 X27.733 Y-34.583
G01 F300 X27.990 Y-34.455
G01 F300 X28.059 Y-34.405
G01 F300 X28.193 Y-34.271
G01 F300 X28.245 Y-34.213
G01 F300 X28.285 Y-34.144
G01 F300 X28.413 Y-33.887
G01 F300 X28.440 Y-33.803
G01 F300 X28.449 Y-33.720
G01 F300 X28.449 Y-33.461
G01 F300 X28.440 Y-33.378
G01 F300 X28.413 Y-33.294
G01 F300 X28.285 Y-33.037
G01 F300 X28.245 Y-32.968
G01 F300 X28.192 Y-32.910
G01 F300 X28.059 Y-32.776
G01 F300 X27.990 Y-32.726
G01 F300 X27.733 Y-32.598
G01 F300 X27.666 Y-32.568
G01 F300 X27.169 Y-32.444
G01 F300 X27.094 Y-32.428
G01 F300 X26.404 Y-32.428
G00 F3000 Z3.000
G00 F3000 X26.510 Y-33.325
G00 F1500 Z0
G01 F300 Z-0.200
G01 F300 X26.988 Y-33.325
G01 F300 X27.365 Y-33.419
G01 F300 X27.495 Y-33.484
G01 F300 X27.510 Y-33.499
G01 F300 X27.549 Y-33.577
G01 F300 X27.549 Y-33.604
G01 F300 X27.510 Y-33.681
G01 F300 X27.494 Y-33.697
G01 F300 X27.365 Y-33.762
G01 F300 X26.989 Y-33.856
G01 F300 X26.510 Y-33.856
G01 F300 X26.133 Y-33.762
G01 F300 X26.004 Y-33.697
G01 F300 X25.988 Y-33.681
G01 F300 X25.949 Y-33.604
G01 F300 X25.949 Y-33.577
G01 F300 X25.988 Y-33.499
G01 F300 X26.004 Y-33.483
G01 F300 X26.132 Y-33.419
G01 F300 X26.510 Y-33.325
G00 F3000 Z3.000
G00 F3000 X25.452 Y-34.690
G00 F1500 Z0
G01 F300 Z-0.200
G01 F300 X25.360 Y-34.709
G01 F300 X25.274 Y-34.747
G01 F300 X25.197 Y-34.803
G01 F300 X25.134 Y-34.873
G01 F300 X25.087 Y-34.955
G01 F300 X25.058 Y-35.044
G01 F300 X25.049 Y-35.128
G01 F300 X25.049 Y-36.696
G01 F300 X25.058 Y-36.779
G01 F300 X25.087 Y-36.869
G01 F300 X25.134 Y-36.951
G01 F300 X25.197 Y-37.021
G01 F300 X25.274 Y-37.076
G01 F300 X25.360 Y-37.115
G01 F300 X25.452 Y-37.134
G01 F300 X25.546 Y-37.134
G01 F300 X25.639 Y-37.115
G01 F300 X25.725 Y-37.076
G01 F300 X25.801 Y-37.021
G01 F300 X25.864 Y-36.951
G01 F300 X25.911 Y-36.869
G01 F300 X25.940 Y-36.779
G01 F300 X25.949 Y-36.696
G01 F300 X25.949 Y-36.224
G01 F300 X26.630 Y-36.905
G01 F300 X26.702 Y-36.957
G01 F300 X26.778 Y-36.991
G01 F300 X27.155 Y-37.117
G01 F300 X27.238 Y-37.134
G01 F300 X27.570 Y-37.134
G01 F300 X27.662 Y-37.115
G01 F300 X27.733 Y-37.083
G01 F300 X27.990 Y-36.955
G01 F300 X28.059 Y-36.905
G01 F300 X28.193 Y-36.771
G01 F300 X28.245 Y-36.713
G01 F300 X28.285 Y-36.644
G01 F300 X28.413 Y-36.387
G01 F300 X28.440 Y-36.303
G01 F300 X28.449 Y-36.220
G01 F300 X28.449 Y-35.604
G01 F300 X28.440 Y-35.520
G01 F300 X28.413 Y-35.437
G01 F300 X28.285 Y-35.180
G01 F300 X28.245 Y-35.111
G01 F300 X28.192 Y-35.053
G01 F300 X28.059 Y-34.919
G01 F300 X27.987 Y-34.867
G01 F300 X27.900 Y-34.828
G01 F300 X27.808 Y-34.809
G01 F300 X27.714 Y-34.809
G01 F300 X27.622 Y-34.828
G01 F300 X27.535 Y-34.867
G01 F300 X27.459 Y-34.922
G01 F300 X27.396 Y-34.992
G01 F300 X27.349 Y-35.074
G01 F300 X27.320 Y-35.163
G01 F300 X27.310 Y-35.257
G01 F300 X27.320 Y-35.351
G01 F300 X27.349 Y-35.441
G01 F300 X27.396 Y-35.522
G01 F300 X27.449 Y-35.581
G01 F300 X27.510 Y-35.642
G01 F300 X27.549 Y-35.720
G01 F300 X27.549 Y-36.104
G01 F300 X27.510 Y-36.181
G01 F300 X27.494 Y-36.197
G01 F300 X27.415 Y-36.237
G01 F300 X27.362 Y-36.237
G01 F300 X27.170 Y-36.173
G01 F300 X25.797 Y-34.800
G01 F300 X25.725 Y-34.747
G01 F300 X25.639 Y-34.709
G01 F300 X25.546 Y-34.690
G01 F300 X25.452 Y-34.690
G00 F3000 Z3.000
G00 F3000 X25.452 Y-37.190
G00 F1500 Z0
G01 F300 Z-0.200
G01 F300 X25.360 Y-37.209
G01 F300 X25.274 Y-37.247
G01 F300 X25.197 Y-37.303
G01 F300 X25.134 Y-37.373
G01 F300 X25.087 Y-37.455
G01 F300 X25.058 Y-37.544
G01 F300 X25.049 Y-37.628
G01 F300 X25.049 Y-39.077
G01 F300 X25.058 Y-39.160
G01 F300 X25.087 Y-39.250
G01 F300 X25.134 Y-39.332
G01 F300 X25.197 Y-39.402
G01 F300 X25.274 Y-39.457
G01 F300 X25.360 Y-39.496
G01 F300 X25.452 Y-39.515
G01 F300 X25.546 Y-39.515
G01 F300 X25.639 Y-39.496
G01 F300 X25.725 Y-39.457
G01 F300 X25.801 Y-39.402
G01 F300 X25.864 Y-39.332
G01 F300 X25.911 Y-39.250
G01 F300 X25.940 Y-39.160
G01 F300 X25.949 Y-39.077
G01 F300 X25.949 Y-38.801
G01 F300 X28.046 Y-38.801
G01 F300 X28.139 Y-38.781
G01 F300 X28.225 Y-38.743
G01 F300 X28.301 Y-38.688
G01 F300 X28.364 Y-38.617
G01 F300 X28.411 Y-38.536
G01 F300 X28.440 Y-38.446
G01 F300 X28.450 Y-38.352
G01 F300 X28.440 Y-38.259
G01 F300 X28.411 Y-38.169
G01 F300 X28.364 Y-38.087
G01 F300 X28.301 Y-38.017
G01 F300 X28.238 Y-37.972
G01 F300 X27.929 Y-37.765
G01 F300 X27.773 Y-37.610
G01 F300 X27.689 Y-37.442
G01 F300 X27.650 Y-37.373
G01 F300 X27.587 Y-37.303
G01 F300 X27.510 Y-37.247
G01 F300 X27.424 Y-37.209
G01 F300 X27.332 Y-37.190
G01 F300 X27.238 Y-37.190
G01 F300 X27.145 Y-37.209
G01 F300 X27.059 Y-37.247
G01 F300 X26.983 Y-37.303
G01 F300 X26.920 Y-37.373
G01 F300 X26.873 Y-37.455
G01 F300 X26.844 Y-37.544
G01 F300 X26.834 Y-37.638
G01 F300 X26.844 Y-37.732
G01 F300 X26.871 Y-37.816
G01 F300 X26.915 Y-37.904
G01 F300 X25.949 Y-37.904
G01 F300 X25.949 Y-37.628
G01 F300 X25.940 Y-37.544
G01 F300 X25.911 Y-37.455
G01 F300 X25.864 Y-37.373
G01 F300 X25.801 Y-37.303
G01 F300 X25.725 Y-37.247
G01 F300 X25.639 Y-37.209
G01 F300 X25.546 Y-37.190
G01 F300 X25.452 Y-37.190
G00 F3000 Z3.000
G00 F3000 X17.086 Y-48.770
G00 F1500 Z0
G01 F300 Z-0.200
G01 F300 X16.687 Y-48.854
G01 F300 X16.314 Y-49.020
G01 F300 X15.989 Y-49.257
G01 F300 X10.576 Y-54.670
G01 F300 X6.106 Y-54.670
G01 F300 X5.707 Y-54.754
G01 F300 X5.334 Y-54.920
G01 F300 X5.009 Y-55.157
G01 F300 X3.724 Y-56.442
G01 F300 X3.462 Y-56.733
G01 F300 X3.258 Y-57.086
G01 F300 X3.131 Y-57.474
G01 F300 X3.090 Y-57.870
G01 F300 X3.090 Y-73.130
G01 F300 X3.131 Y-73.526
G01 F300 X3.258 Y-73.914
G01 F300 X3.462 Y-74.267
G01 F300 X3.724 Y-74.558
G01 F300 X8.170 Y-79.004
G01 F300 X8.170 Y-79.480
G01 F300 X8.212 Y-79.876
G01 F300 X8.338 Y-80.264
G01 F300 X8.420 Y-80.406
G01 F300 X8.420 Y-81.170
G01 F300 X9.168 Y-81.170
G01 F300 X9.517 Y-81.326
G01 F300 X9.916 Y-81.410
G01 F300 X10.324 Y-81.410
G01 F300 X10.723 Y-81.326
G01 F300 X11.072 Y-81.170
G01 F300 X11.820 Y-81.170
G01 F300 X11.820 Y-80.406
G01 F300 X11.902 Y-80.264
G01 F300 X12.029 Y-79.876
G01 F300 X12.070 Y-79.480
G01 F300 X12.070 Y-78.190
G01 F300 X12.029 Y-77.794
G01 F300 X11.902 Y-77.406
G01 F300 X11.698 Y-77.053
G01 F300 X11.436 Y-76.762
G01 F300 X6.990 Y-72.316
G01 F300 X6.990 Y-58.684
G01 F300 X7.124 Y-58.550
G01 F300 X11.594 Y-58.550
G01 F300 X11.993 Y-58.466
G01 F300 X12.366 Y-58.300
G01 F300 X12.691 Y-58.063
G01 F300 X18.104 Y-52.650
G01 F300 X23.024 Y-52.650
G01 F300 X23.423 Y-52.566
G01 F300 X23.796 Y-52.400
G01 F300 X24.126 Y-52.160
G01 F300 X24.398 Y-51.857
G01 F300 X24.603 Y-51.504
G01 F300 X24.729 Y-51.116
G01 F300 X24.771 Y-50.710
G01 F300 X24.729 Y-50.304
G01 F300 X24.603 Y-49.916
G01 F300 X24.398 Y-49.563
G01 F300 X24.126 Y-49.260
G01 F300 X23.796 Y-49.020
G01 F300 X23.423 Y-48.854
G01 F300 X23.024 Y-48.770
G01 F300 X17.086 Y-48.770
G00 F3000 Z3.000
G00 F3000 X22.616 Y-57.070
G00 F1500 Z0
G01 F300 Z-0.200
G01 F300 X22.217 Y-57.154
G01 F300 X21.844 Y-57.320
G01 F300 X21.514 Y-57.560
G01 F300 X21.242 Y-57.863
G01 F300 X21.038 Y-58.216
G01 F300 X20.912 Y-58.604
G01 F300 X20.869 Y-59.010
G01 F300 X20.912 Y-59.416
G01 F300 X21.038 Y-59.804
G01 F300 X21.242 Y-60.157
G01 F300 X21.514 Y-60.460
G01 F300 X21.844 Y-60.700
G01 F300 X22.217 Y-60.866
G01 F300 X22.616 Y-60.950
G01 F300 X24.406 Y-60.950
G01 F300 X25.329 Y-61.873
G01 F300 X25.654 Y-62.110
G01 F300 X26.027 Y-62.276
G01 F300 X26.426 Y-62.360
G01 F300 X26.700 Y-62.360
G01 F300 X26.700 Y-72.450
G01 F300 X26.426 Y-72.450
G01 F300 X26.027 Y-72.534
G01 F300 X25.654 Y-72.700
G01 F300 X25.329 Y-72.937
G01 F300 X24.546 Y-73.720
G01 F300 X22.616 Y-73.720
G01 F300 X22.217 Y-73.804
G01 F300 X21.844 Y-73.970
G01 F300 X21.514 Y-74.210
G01 F300 X21.242 Y-74.513
G01 F300 X21.038 Y-74.866
G01 F300 X20.912 Y-75.254
G01 F300 X20.870 Y-75.650
G01 F300 X20.870 Y-76.126
G01 F300 X19.226 Y-77.770
G01 F300 X18.580 Y-77.770
G01 F300 X18.580 Y-78.534
G01 F300 X18.498 Y-78.676
G01 F300 X18.372 Y-79.064
G01 F300 X18.329 Y-79.470
G01 F300 X18.372 Y-79.876
G01 F300 X18.498 Y-80.264
G01 F300 X18.580 Y-80.406
G01 F300 X18.580 Y-81.170
G01 F300 X19.328 Y-81.170
G01 F300 X19.677 Y-81.326
G01 F300 X20.076 Y-81.410
G01 F300 X20.484 Y-81.410
G01 F300 X20.883 Y-81.326
G01 F300 X21.232 Y-81.170
G01 F300 X21.980 Y-81.170
G01 F300 X21.980 Y-80.524
G01 F300 X24.136 Y-78.368
G01 F300 X24.398 Y-78.077
G01 F300 X24.603 Y-77.724
G01 F300 X24.643 Y-77.600
G01 F300 X25.564 Y-77.600
G01 F300 X25.963 Y-77.516
G01 F300 X26.336 Y-77.350
G01 F300 X26.661 Y-77.113
G01 F300 X27.946 Y-75.828
G01 F300 X28.199 Y-75.548
G01 F300 X28.271 Y-75.532
G01 F300 X28.501 Y-75.430
G01 F300 X28.704 Y-75.283
G01 F300 X28.872 Y-75.096
G01 F300 X28.997 Y-74.879
G01 F300 X29.075 Y-74.640
G01 F300 X29.100 Y-74.400
G01 F300 X29.100 Y-61.680
G01 F300 X29.075 Y-61.440
G01 F300 X28.997 Y-61.202
G01 F300 X28.872 Y-60.984
G01 F300 X28.714 Y-60.809
G01 F300 X28.557 Y-60.652
G01 F300 X28.581 Y-60.420
G01 F300 X28.539 Y-60.014
G01 F300 X28.413 Y-59.626
G01 F300 X28.208 Y-59.273
G01 F300 X27.946 Y-58.982
G01 F300 X26.521 Y-57.557
G01 F300 X26.196 Y-57.320
G01 F300 X25.823 Y-57.154
G01 F300 X25.424 Y-57.070
G01 F300 X22.616 Y-57.070
G00 F3000 Z3.000
G00 F3000 X13.796 Y-76.521
G00 F1500 Z0
G01 F300 Z-0.200
G01 F300 X13.703 Y-76.541
G01 F300 X13.617 Y-76.579
G01 F300 X13.541 Y-76.635
G01 F300 X13.478 Y-76.705
G01 F300 X13.431 Y-76.787
G01 F300 X13.402 Y-76.876
G01 F300 X13.392 Y-76.970
G01 F300 X13.402 Y-77.064
G01 F300 X13.431 Y-77.154
G01 F300 X13.478 Y-77.235
G01 F300 X13.541 Y-77.305
G01 F300 X13.617 Y-77.361
G01 F300 X13.693 Y-77.394
G01 F300 X14.250 Y-77.580
G01 F300 X14.250 Y-78.360
G01 F300 X13.693 Y-78.546
G01 F300 X13.617 Y-78.579
G01 F300 X13.541 Y-78.635
G01 F300 X13.478 Y-78.705
G01 F300 X13.431 Y-78.787
G01 F300 X13.402 Y-78.876
G01 F300 X13.392 Y-78.970
G01 F300 X13.402 Y-79.064
G01 F300 X13.431 Y-79.154
G01 F300 X13.478 Y-79.235
G01 F300 X13.541 Y-79.305
G01 F300 X13.617 Y-79.361
G01 F300 X13.703 Y-79.399
G01 F300 X13.796 Y-79.419
G01 F300 X13.890 Y-79.419
G01 F300 X13.973 Y-79.401
G01 F300 X16.992 Y-78.394
G01 F300 X17.068 Y-78.361
G01 F300 X17.145 Y-78.305
G01 F300 X17.208 Y-78.235
G01 F300 X17.255 Y-78.154
G01 F300 X17.284 Y-78.064
G01 F300 X17.294 Y-77.970
G01 F300 X17.284 Y-77.876
G01 F300 X17.255 Y-77.787
G01 F300 X17.208 Y-77.705
G01 F300 X17.145 Y-77.635
G01 F300 X17.068 Y-77.579
G01 F300 X16.992 Y-77.546
G01 F300 X14.841 Y-76.828
G01 F300 X13.973 Y-76.539
G01 F300 X13.890 Y-76.521
G01 F300 X13.796 Y-76.521
G00 F3000 Z3.000
G00 F3000 X15.150 Y-77.880
G00 F1500 Z0
G01 F300 Z-0.200
G01 F300 X15.420 Y-77.970
G01 F300 X15.150 Y-78.060
G01 F300 X15.150 Y-77.880
G00 F3000 Z3.000
G00 F3000 X3.540 Y-78.551
G00 F1500 Z0
G01 F300 Z-0.200
G01 F300 X3.090 Y-78.647
G01 F300 X2.669 Y-78.834
G01 F300 X2.297 Y-79.104
G01 F300 X1.989 Y-79.446
G01 F300 X1.759 Y-79.845
G01 F300 X1.617 Y-80.282
G01 F300 X1.569 Y-80.740
G01 F300 X1.617 Y-81.198
G01 F300 X1.759 Y-81.635
G01 F300 X1.989 Y-82.034
G01 F300 X2.297 Y-82.376
G01 F300 X2.669 Y-82.646
G01 F300 X3.090 Y-82.833
G01 F300 X3.540 Y-82.929
G01 F300 X4.000 Y-82.929
G01 F300 X4.450 Y-82.833
G01 F300 X4.871 Y-82.646
G01 F300 X5.243 Y-82.376
G01 F300 X5.551 Y-82.034
G01 F300 X5.781 Y-81.635
G01 F300 X5.923 Y-81.198
G01 F300 X5.971 Y-80.740
G01 F300 X5.923 Y-80.282
G01 F300 X5.781 Y-79.845
G01 F300 X5.551 Y-79.446
G01 F300 X5.243 Y-79.104
G01 F300 X4.871 Y-78.834
G01 F300 X4.450 Y-78.647
G01 F300 X4.000 Y-78.551
G01 F300 X3.540 Y-78.551
G00 F3000 Z3.000
G00 F3000 X26.400 Y-78.551
G00 F1500 Z0
G01 F300 Z-0.200
G01 F300 X25.950 Y-78.647
G01 F300 X25.529 Y-78.834
G01 F300 X25.157 Y-79.104
G01 F300 X24.849 Y-79.446
G01 F300 X24.619 Y-79.845
G01 F300 X24.477 Y-80.282
G01 F300 X24.429 Y-80.740
G01 F300 X24.477 Y-81.198
G01 F300 X24.619 Y-81.635
G01 F300 X24.849 Y-82.034
G01 F300 X25.157 Y-82.376
G01 F300 X25.529 Y-82.646
G01 F300 X25.950 Y-82.833
G01 F300 X26.400 Y-82.929
G01 F300 X26.860 Y-82.929
G01 F300 X27.310 Y-82.833
G01 F300 X27.731 Y-82.646
G01 F300 X28.103 Y-82.376
G01 F300 X28.411 Y-82.034
G01 F300 X28.641 Y-81.635
G01 F300 X28.783 Y-81.198
G01 F300 X28.831 Y-80.740
G01 F300 X28.783 Y-80.282
G01 F300 X28.641 Y-79.845
G01 F300 X28.411 Y-79.446
G01 F300 X28.103 Y-79.104
G01 F300 X27.731 Y-78.834
G01 F300 X27.310 Y-78.647
G01 F300 X26.860 Y-78.551
G01 F300 X26.400 Y-78.551
G00 F3000 Z3.000
G00 F3000 X15.081 Y-79.379
G00 F1500 Z0
G01 F300 Z-0.200
G01 F300 X15.006 Y-79.395
G01 F300 X14.414 Y-79.542
G01 F300 X14.347 Y-79.573
G01 F300 X14.042 Y-79.725
G01 F300 X13.974 Y-79.775
G01 F300 X13.673 Y-80.075
G01 F300 X13.621 Y-80.133
G01 F300 X13.574 Y-80.215
G01 F300 X13.425 Y-80.663
G01 F300 X13.402 Y-80.733
G01 F300 X13.393 Y-80.817
G01 F300 X13.393 Y-81.123
G01 F300 X13.402 Y-81.207
G01 F300 X13.425 Y-81.277
G01 F300 X13.574 Y-81.726
G01 F300 X13.621 Y-81.807
G01 F300 X13.673 Y-81.865
G01 F300 X13.831 Y-82.023
G01 F300 X13.903 Y-82.075
G01 F300 X13.989 Y-82.113
G01 F300 X14.081 Y-82.133
G01 F300 X14.176 Y-82.133
G01 F300 X14.268 Y-82.113
G01 F300 X14.354 Y-82.075
G01 F300 X14.430 Y-82.020
G01 F300 X14.494 Y-81.949
G01 F300 X14.541 Y-81.868
G01 F300 X14.570 Y-81.778
G01 F300 X14.580 Y-81.684
G01 F300 X14.570 Y-81.591
G01 F300 X14.541 Y-81.501
G01 F300 X14.494 Y-81.419
G01 F300 X14.441 Y-81.361
G01 F300 X14.377 Y-81.297
G01 F300 X14.293 Y-81.044
G01 F300 X14.293 Y-80.896
G01 F300 X14.377 Y-80.643
G01 F300 X14.538 Y-80.482
G01 F300 X14.715 Y-80.394
G01 F300 X15.187 Y-80.276
G01 F300 X15.499 Y-80.276
G01 F300 X15.971 Y-80.394
G01 F300 X16.148 Y-80.482
G01 F300 X16.308 Y-80.643
G01 F300 X16.393 Y-80.897
G01 F300 X16.393 Y-81.043
G01 F300 X16.308 Y-81.297
G01 F300 X16.245 Y-81.361
G01 F300 X16.192 Y-81.419
G01 F300 X16.145 Y-81.501
G01 F300 X16.116 Y-81.591
G01 F300 X16.106 Y-81.684
G01 F300 X16.116 Y-81.778
G01 F300 X16.145 Y-81.868
G01 F300 X16.192 Y-81.949
G01 F300 X16.255 Y-82.020
G01 F300 X16.332 Y-82.075
G01 F300 X16.418 Y-82.113
G01 F300 X16.510 Y-82.133
G01 F300 X16.604 Y-82.133
G01 F300 X16.697 Y-82.113
G01 F300 X16.783 Y-82.075
G01 F300 X16.855 Y-82.023
G01 F300 X17.012 Y-81.865
G01 F300 X17.065 Y-81.807
G01 F300 X17.112 Y-81.726
G01 F300 X17.261 Y-81.277
G01 F300 X17.284 Y-81.207
G01 F300 X17.293 Y-81.123
G01 F300 X17.293 Y-80.817
G01 F300 X17.284 Y-80.733
G01 F300 X17.261 Y-80.663
G01 F300 X17.112 Y-80.215
G01 F300 X17.065 Y-80.133
G01 F300 X17.012 Y-80.075
G01 F300 X16.712 Y-79.775
G01 F300 X16.643 Y-79.725
G01 F300 X16.339 Y-79.573
G01 F300 X16.271 Y-79.542
G01 F300 X15.679 Y-79.395
G01 F300 X15.604 Y-79.379
G01 F300 X15.081 Y-79.379
G00 F3000 Z3.000
G00 F3000 X26.389 Y-2.251
G00 F1500 Z0
G01 F300 Z-0.200
G01 F300 X25.919 Y-2.351
G01 F300 X25.479 Y-2.547
G01 F300 X25.090 Y-2.830
G01 F300 X24.768 Y-3.187
G01 F300 X24.527 Y-3.604
G01 F300 X24.379 Y-4.062
G01 F300 X24.328 Y-4.540
G01 F300 X24.379 Y-5.019
G01 F300 X24.527 Y-5.476
G01 F300 X24.768 Y-5.893
G01 F300 X25.090 Y-6.250
G01 F300 X25.479 Y-6.533
G01 F300 X25.919 Y-6.729
G01 F300 X26.389 Y-6.829
G01 F300 X26.871 Y-6.829
G01 F300 X27.341 Y-6.729
G01 F300 X27.781 Y-6.533
G01 F300 X28.170 Y-6.250
G01 F300 X28.492 Y-5.893
G01 F300 X28.733 Y-5.476
G01 F300 X28.881 Y-5.019
G01 F300 X28.932 Y-4.540
G01 F300 X28.881 Y-4.062
G01 F300 X28.733 Y-3.604
G01 F300 X28.492 Y-3.187
G01 F300 X28.170 Y-2.830
G01 F300 X27.781 Y-2.547
G01 F300 X27.341 Y-2.351
G01 F300 X26.871 Y-2.251
G01 F300 X26.389 Y-2.251
G00 F3000 Z3.000
G00 F3000 X3.529 Y-2.251
G00 F1500 Z0
G01 F300 Z-0.200
G01 F300 X3.059 Y-2.351
G01 F300 X2.619 Y-2.547
G01 F300 X2.230 Y-2.830
G01 F300 X1.908 Y-3.187
G01 F300 X1.667 Y-3.604
G01 F300 X1.519 Y-4.062
G01 F300 X1.468 Y-4.540
G01 F300 X1.519 Y-5.019
G01 F300 X1.667 Y-5.476
G01 F300 X1.908 Y-5.893
G01 F300 X2.230 Y-6.250
G01 F300 X2.619 Y-6.533
G01 F300 X3.059 Y-6.729
G01 F300 X3.529 Y-6.829
G01 F300 X4.011 Y-6.829
G01 F300 X4.481 Y-6.729
G01 F300 X4.921 Y-6.533
G01 F300 X5.310 Y-6.250
G01 F300 X5.632 Y-5.893
G01 F300 X5.873 Y-5.476
G01 F300 X6.021 Y-5.019
G01 F300 X6.072 Y-4.540
G01 F300 X6.021 Y-4.062
G01 F300 X5.873 Y-3.604
G01 F300 X5.632 Y-3.187
G01 F300 X5.310 Y-2.830
G01 F300 X4.921 Y-2.547
G01 F300 X4.481 Y-2.351
G01 F300 X4.011 Y-2.251
G01 F300 X3.529 Y-2.251
G00 F3000 Z3.000
G00 F3000 X8.636 Y-5.040
G00 F1500 Z0
G01 F300 Z-0.200
G01 F300 X8.216 Y-5.129
G01 F300 X7.824 Y-5.303
G01 F300 X7.477 Y-5.555
G01 F300 X7.190 Y-5.874
G01 F300 X6.976 Y-6.246
G01 F300 X6.843 Y-6.653
G01 F300 X6.800 Y-7.064
G01 F300 X6.800 Y-11.991
G01 F300 X6.782 Y-11.936
G01 F300 X6.724 Y-11.836
G01 F300 X6.647 Y-11.750
G01 F300 X6.554 Y-11.682
G01 F300 X6.448 Y-11.635
G01 F300 X6.336 Y-11.611
G01 F300 X5.304 Y-11.611
G01 F300 X5.304 Y-10.620
G01 F300 X5.294 Y-10.521
G01 F300 X5.258 Y-10.412
G01 F300 X5.201 Y-10.312
G01 F300 X5.123 Y-10.226
G01 F300 X5.030 Y-10.158
G01 F300 X4.925 Y-10.112
G01 F300 X4.812 Y-10.088
G01 F300 X4.697 Y-10.088
G01 F300 X4.584 Y-10.112
G01 F300 X4.478 Y-10.158
G01 F300 X4.385 Y-10.226
G01 F300 X4.308 Y-10.312
G01 F300 X4.250 Y-10.412
G01 F300 X4.215 Y-10.521
G01 F300 X4.204 Y-10.620
G01 F300 X4.204 Y-11.611
G01 F300 X3.173 Y-11.611
G01 F300 X3.060 Y-11.635
G01 F300 X2.955 Y-11.682
G01 F300 X2.861 Y-11.750
G01 F300 X2.784 Y-11.836
G01 F300 X2.726 Y-11.936
G01 F300 X2.691 Y-12.045
G01 F300 X2.679 Y-12.160
G01 F300 X2.691 Y-12.275
G01 F300 X2.726 Y-12.384
G01 F300 X2.784 Y-12.484
G01 F300 X2.861 Y-12.570
G01 F300 X2.955 Y-12.638
G01 F300 X3.060 Y-12.685
G01 F300 X3.173 Y-12.709
G01 F300 X4.204 Y-12.709
G01 F300 X4.204 Y-13.699
G01 F300 X4.215 Y-13.798
G01 F300 X4.250 Y-13.908
G01 F300 X4.308 Y-14.008
G01 F300 X4.385 Y-14.094
G01 F300 X4.478 Y-14.162
G01 F300 X4.584 Y-14.208
G01 F300 X4.697 Y-14.232
G01 F300 X4.812 Y-14.232
G01 F300 X4.925 Y-14.208
G01 F300 X5.030 Y-14.162
G01 F300 X5.123 Y-14.094
G01 F300 X5.201 Y-14.008
G01 F300 X5.258 Y-13.908
G01 F300 X5.294 Y-13.799
G01 F300 X5.304 Y-13.699
G01 F300 X5.304 Y-12.709
G01 F300 X6.336 Y-12.709
G01 F300 X6.448 Y-12.685
G01 F300 X6.554 Y-12.638
G01 F300 X6.647 Y-12.570
G01 F300 X6.724 Y-12.484
G01 F300 X6.782 Y-12.384
G01 F300 X6.800 Y-12.329
G01 F300 X6.800 Y-15.354
G01 F300 X6.554 Y-15.463
G01 F300 X6.214 Y-15.711
G01 F300 X2.381 Y-19.543
G01 F300 X2.110 Y-19.844
G01 F300 X1.896 Y-20.216
G01 F300 X1.763 Y-20.623
G01 F300 X1.720 Y-21.034
G01 F300 X1.720 Y-43.926
G01 F300 X1.763 Y-44.337
G01 F300 X1.896 Y-44.745
G01 F300 X2.110 Y-45.116
G01 F300 X2.381 Y-45.417
G01 F300 X3.674 Y-46.709
G01 F300 X4.014 Y-46.957
G01 F300 X4.406 Y-47.131
G01 F300 X4.826 Y-47.220
G01 F300 X10.334 Y-47.220
G01 F300 X10.754 Y-47.131
G01 F300 X11.146 Y-46.957
G01 F300 X11.493 Y-46.705
G01 F300 X11.780 Y-46.386
G01 F300 X11.994 Y-46.015
G01 F300 X12.127 Y-45.607
G01 F300 X12.172 Y-45.180
G01 F300 X12.127 Y-44.753
G01 F300 X11.994 Y-44.346
G01 F300 X11.780 Y-43.974
G01 F300 X11.493 Y-43.655
G01 F300 X11.146 Y-43.403
G01 F300 X10.754 Y-43.229
G01 F300 X10.334 Y-43.140
G01 F300 X5.895 Y-43.140
G01 F300 X5.820 Y-43.064
G01 F300 X5.820 Y-21.896
G01 F300 X8.435 Y-19.280
G01 F300 X9.064 Y-19.280
G01 F300 X9.484 Y-19.191
G01 F300 X9.876 Y-19.017
G01 F300 X10.223 Y-18.765
G01 F300 X10.510 Y-18.446
G01 F300 X10.724 Y-18.075
G01 F300 X10.857 Y-17.667
G01 F300 X10.900 Y-17.256
G01 F300 X10.900 Y-9.120
G01 F300 X11.604 Y-9.120
G01 F300 X12.024 Y-9.031
G01 F300 X12.364 Y-8.880
G01 F300 X13.190 Y-8.880
G01 F300 X13.190 Y-8.043
G01 F300 X13.264 Y-7.915
G01 F300 X13.397 Y-7.507
G01 F300 X13.442 Y-7.080
G01 F300 X13.397 Y-6.653
G01 F300 X13.264 Y-6.246
G01 F300 X13.190 Y-6.117
G01 F300 X13.190 Y-5.280
G01 F300 X12.364 Y-5.280
G01 F300 X12.024 Y-5.129
G01 F300 X11.604 Y-5.040
G01 F300 X8.636 Y-5.040
G00 F3000 Z3.000
G00 F3000 X20.066 Y-5.040
G00 F1500 Z0
G01 F300 Z-0.200
G01 F300 X19.646 Y-5.129
G01 F300 X19.306 Y-5.280
G01 F300 X18.480 Y-5.280
G01 F300 X18.480 Y-6.117
G01 F300 X18.406 Y-6.246
G01 F300 X18.273 Y-6.653
G01 F300 X18.230 Y-7.064
G01 F300 X18.230 Y-22.584
G01 F300 X17.461 Y-23.353
G01 F300 X17.190 Y-23.654
G01 F300 X16.976 Y-24.026
G01 F300 X16.843 Y-24.433
G01 F300 X16.800 Y-24.844
G01 F300 X16.800 Y-38.416
G01 F300 X16.843 Y-38.827
G01 F300 X16.976 Y-39.235
G01 F300 X17.190 Y-39.606
G01 F300 X17.461 Y-39.907
G01 F300 X21.454 Y-43.899
G01 F300 X21.794 Y-44.147
G01 F300 X22.186 Y-44.321
G01 F300 X22.606 Y-44.410
G01 F300 X23.034 Y-44.410
G01 F300 X23.454 Y-44.321
G01 F300 X23.846 Y-44.147
G01 F300 X24.193 Y-43.895
G01 F300 X24.480 Y-43.576
G01 F300 X24.694 Y-43.205
G01 F300 X24.827 Y-42.797
G01 F300 X24.872 Y-42.370
G01 F300 X24.827 Y-41.943
G01 F300 X24.694 Y-41.535
G01 F300 X24.480 Y-41.164
G01 F300 X24.209 Y-40.863
G01 F300 X20.900 Y-37.554
G01 F300 X20.900 Y-27.096
G01 F300 X21.149 Y-27.149
G01 F300 X21.631 Y-27.149
G01 F300 X22.101 Y-27.049
G01 F300 X22.541 Y-26.853
G01 F300 X22.930 Y-26.570
G01 F300 X23.252 Y-26.213
G01 F300 X23.493 Y-25.796
G01 F300 X23.641 Y-25.338
G01 F300 X23.692 Y-24.860
G01 F300 X23.641 Y-24.382
G01 F300 X23.493 Y-23.924
G01 F300 X23.252 Y-23.507
G01 F300 X22.930 Y-23.150
G01 F300 X22.541 Y-22.867
G01 F300 X22.330 Y-22.773
G01 F300 X22.330 Y-7.064
G01 F300 X22.287 Y-6.653
G01 F300 X22.154 Y-6.246
G01 F300 X22.080 Y-6.117
G01 F300 X22.080 Y-5.280
G01 F300 X21.254 Y-5.280
G01 F300 X20.914 Y-5.129
G01 F300 X20.494 Y-5.040
G01 F300 X20.066 Y-5.040
G00 F3000 Z3.000
G00 F3000 X23.747 Y-8.818
G00 F1500 Z0
G01 F300 Z-0.200
G01 F300 X23.634 Y-8.842
G01 F300 X23.528 Y-8.888
G01 F300 X23.435 Y-8.956
G01 F300 X23.358 Y-9.042
G01 F300 X23.300 Y-9.142
G01 F300 X23.265 Y-9.252
G01 F300 X23.254 Y-9.351
G01 F300 X23.254 Y-12.429
G01 F300 X23.265 Y-12.528
G01 F300 X23.300 Y-12.638
G01 F300 X23.358 Y-12.738
G01 F300 X23.435 Y-12.824
G01 F300 X23.528 Y-12.892
G01 F300 X23.634 Y-12.938
G01 F300 X23.747 Y-12.962
G01 F300 X23.862 Y-12.962
G01 F300 X23.975 Y-12.938
G01 F300 X24.080 Y-12.892
G01 F300 X24.174 Y-12.824
G01 F300 X24.251 Y-12.738
G01 F300 X24.308 Y-12.638
G01 F300 X24.344 Y-12.529
G01 F300 X24.354 Y-12.429
G01 F300 X24.354 Y-9.351
G01 F300 X24.344 Y-9.252
G01 F300 X24.308 Y-9.142
G01 F300 X24.251 Y-9.042
G01 F300 X24.174 Y-8.956
G01 F300 X24.080 Y-8.888
G01 F300 X23.975 Y-8.842
G01 F300 X23.862 Y-8.818
G01 F300 X23.747 Y-8.818
G00 F3000 Z3.000
G00 F3000 X25.441 Y-14.947
G00 F1500 Z0
G01 F300 Z-0.200
G01 F300 X25.329 Y-14.971
G01 F300 X25.223 Y-15.018
G01 F300 X25.130 Y-15.085
G01 F300 X25.053 Y-15.171
G01 F300 X24.995 Y-15.271
G01 F300 X24.960 Y-15.381
G01 F300 X24.947 Y-15.495
G01 F300 X24.960 Y-15.610
G01 F300 X24.995 Y-15.719
G01 F300 X25.053 Y-15.820
G01 F300 X25.130 Y-15.905
G01 F300 X25.223 Y-15.973
G01 F300 X25.313 Y-16.013
G01 F300 X25.663 Y-16.130
G01 F300 X25.663 Y-16.527
G01 F300 X25.313 Y-16.644
G01 F300 X25.223 Y-16.684
G01 F300 X25.130 Y-16.752
G01 F300 X25.053 Y-16.838
G01 F300 X24.995 Y-16.938
G01 F300 X24.960 Y-17.047
G01 F300 X24.947 Y-17.162
G01 F300 X24.960 Y-17.277
G01 F300 X24.995 Y-17.386
G01 F300 X25.053 Y-17.486
G01 F300 X25.130 Y-17.572
G01 F300 X25.223 Y-17.640
G01 F300 X25.294 Y-17.671
G01 F300 X25.249 Y-17.704
G01 F300 X25.172 Y-17.790
G01 F300 X25.125 Y-17.870
G01 F300 X24.992 Y-18.137
G01 F300 X24.960 Y-18.238
G01 F300 X24.949 Y-18.337
G01 F300 X24.949 Y-18.725
G01 F300 X24.960 Y-18.824
G01 F300 X24.980 Y-18.888
G01 F300 X24.960 Y-18.952
G01 F300 X24.947 Y-19.067
G01 F300 X24.960 Y-19.181
G01 F300 X24.995 Y-19.291
G01 F300 X25.053 Y-19.391
G01 F300 X25.130 Y-19.477
G01 F300 X25.223 Y-19.544
G01 F300 X25.329 Y-19.591
G01 F300 X25.441 Y-19.615
G01 F300 X27.223 Y-19.615
G01 F300 X27.336 Y-19.591
G01 F300 X27.442 Y-19.544
G01 F300 X27.535 Y-19.477
G01 F300 X27.612 Y-19.391
G01 F300 X27.670 Y-19.291
G01 F300 X27.705 Y-19.181
G01 F300 X27.718 Y-19.067
G01 F300 X27.705 Y-18.952
G01 F300 X27.670 Y-18.842
G01 F300 X27.612 Y-18.742
G01 F300 X27.535 Y-18.657
G01 F300 X27.442 Y-18.589
G01 F300 X27.336 Y-18.542
G01 F300 X27.284 Y-18.531
G01 F300 X27.336 Y-18.520
G01 F300 X27.442 Y-18.473
G01 F300 X27.535 Y-18.405
G01 F300 X27.612 Y-18.320
G01 F300 X27.670 Y-18.220
G01 F300 X27.705 Y-18.110
G01 F300 X27.718 Y-17.995
G01 F300 X27.705 Y-17.881
G01 F300 X27.670 Y-17.771
G01 F300 X27.612 Y-17.671
G01 F300 X27.535 Y-17.585
G01 F300 X27.442 Y-17.518
G01 F300 X27.336 Y-17.471
G01 F300 X27.223 Y-17.447
G01 F300 X26.384 Y-17.447
G01 F300 X28.185 Y-16.846
G01 F300 X28.275 Y-16.806
G01 F300 X28.368 Y-16.739
G01 F300 X28.445 Y-16.653
G01 F300 X28.503 Y-16.553
G01 F300 X28.539 Y-16.443
G01 F300 X28.551 Y-16.329
G01 F300 X28.539 Y-16.214
G01 F300 X28.503 Y-16.104
G01 F300 X28.445 Y-16.004
G01 F300 X28.368 Y-15.919
G01 F300 X28.275 Y-15.851
G01 F300 X28.185 Y-15.811
G01 F300 X25.655 Y-14.967
G01 F300 X25.557 Y-14.947
G01 F300 X25.441 Y-14.947
G00 F3000 Z3.000
G00 F3000 X25.441 Y-19.709
G00 F1500 Z0
G01 F300 Z-0.200
G01 F300 X25.329 Y-19.733
G01 F300 X25.223 Y-19.779
G01 F300 X25.130 Y-19.847
G01 F300 X25.053 Y-19.933
G01 F300 X24.995 Y-20.033
G01 F300 X24.960 Y-20.143
G01 F300 X24.947 Y-20.257
G01 F300 X24.960 Y-20.372
G01 F300 X24.995 Y-20.481
G01 F300 X25.053 Y-20.581
G01 F300 X25.130 Y-20.667
G01 F300 X25.223 Y-20.735
G01 F300 X25.329 Y-20.782
G01 F300 X25.441 Y-20.806
G01 F300 X26.558 Y-20.806
G01 F300 X26.597 Y-20.826
G01 F300 X26.616 Y-20.862
G01 F300 X26.616 Y-20.987
G01 F300 X26.626 Y-21.086
G01 F300 X26.643 Y-21.137
G01 F300 X25.799 Y-21.137
G01 F300 X25.686 Y-21.161
G01 F300 X25.603 Y-21.198
G01 F300 X25.337 Y-21.331
G01 F300 X25.249 Y-21.395
G01 F300 X25.172 Y-21.480
G01 F300 X25.125 Y-21.561
G01 F300 X24.992 Y-21.827
G01 F300 X24.960 Y-21.928
G01 F300 X24.949 Y-22.027
G01 F300 X24.949 Y-22.535
G01 F300 X24.960 Y-22.634
G01 F300 X24.992 Y-22.735
G01 F300 X25.125 Y-23.001
G01 F300 X25.172 Y-23.081
G01 F300 X25.249 Y-23.167
G01 F300 X25.342 Y-23.235
G01 F300 X25.448 Y-23.282
G01 F300 X25.560 Y-23.306
G01 F300 X25.676 Y-23.306
G01 F300 X25.789 Y-23.282
G01 F300 X25.894 Y-23.235
G01 F300 X25.987 Y-23.167
G01 F300 X26.061 Y-23.085
G01 F300 X26.067 Y-23.101
G01 F300 X26.124 Y-23.200
G01 F300 X26.201 Y-23.286
G01 F300 X26.295 Y-23.354
G01 F300 X26.396 Y-23.399
G01 F300 X25.799 Y-23.399
G01 F300 X25.686 Y-23.423
G01 F300 X25.603 Y-23.460
G01 F300 X25.337 Y-23.593
G01 F300 X25.249 Y-23.657
G01 F300 X25.172 Y-23.742
G01 F300 X25.125 Y-23.823
G01 F300 X24.992 Y-24.089
G01 F300 X24.960 Y-24.190
G01 F300 X24.947 Y-24.305
G01 F300 X24.960 Y-24.419
G01 F300 X24.995 Y-24.529
G01 F300 X25.053 Y-24.629
G01 F300 X25.130 Y-24.715
G01 F300 X25.221 Y-24.781
G01 F300 X25.130 Y-24.847
G01 F300 X25.053 Y-24.933
G01 F300 X24.995 Y-25.033
G01 F300 X24.960 Y-25.143
G01 F300 X24.947 Y-25.257
G01 F300 X24.960 Y-25.372
G01 F300 X24.995 Y-25.481
G01 F300 X25.053 Y-25.581
G01 F300 X25.130 Y-25.667
G01 F300 X25.223 Y-25.735
G01 F300 X25.329 Y-25.782
G01 F300 X25.441 Y-25.806
G01 F300 X25.801 Y-25.806
G01 F300 X25.722 Y-25.841
G01 F300 X25.456 Y-25.974
G01 F300 X25.375 Y-26.033
G01 F300 X25.233 Y-26.174
G01 F300 X25.172 Y-26.242
G01 F300 X25.125 Y-26.323
G01 F300 X24.992 Y-26.589
G01 F300 X24.960 Y-26.690
G01 F300 X24.949 Y-26.789
G01 F300 X24.949 Y-27.178
G01 F300 X24.960 Y-27.277
G01 F300 X24.992 Y-27.378
G01 F300 X25.125 Y-27.644
G01 F300 X25.172 Y-27.724
G01 F300 X25.233 Y-27.792
G01 F300 X25.374 Y-27.934
G01 F300 X25.456 Y-27.993
G01 F300 X25.722 Y-28.126
G01 F300 X25.805 Y-28.163
G01 F300 X25.918 Y-28.187
G01 F300 X26.747 Y-28.187
G01 F300 X26.860 Y-28.163
G01 F300 X26.943 Y-28.126
G01 F300 X27.209 Y-27.993
G01 F300 X27.290 Y-27.934
G01 F300 X27.432 Y-27.792
G01 F300 X27.493 Y-27.724
G01 F300 X27.539 Y-27.644
G01 F300 X27.673 Y-27.378
G01 F300 X27.705 Y-27.277
G01 F300 X27.716 Y-27.178
G01 F300 X27.716 Y-26.789
G01 F300 X27.705 Y-26.690
G01 F300 X27.673 Y-26.589
G01 F300 X27.539 Y-26.323
G01 F300 X27.493 Y-26.242
G01 F300 X27.431 Y-26.174
G01 F300 X27.290 Y-26.033
G01 F300 X27.209 Y-25.974
G01 F300 X26.943 Y-25.841
G01 F300 X26.864 Y-25.806
G01 F300 X27.224 Y-25.806
G01 F300 X27.336 Y-25.782
G01 F300 X27.441 Y-25.735
G01 F300 X27.453 Y-25.727
G01 F300 X27.517 Y-25.791
G01 F300 X27.604 Y-25.854
G01 F300 X27.710 Y-25.901
G01 F300 X27.822 Y-25.925
G01 F300 X27.938 Y-25.925
G01 F300 X28.050 Y-25.901
G01 F300 X28.156 Y-25.854
G01 F300 X28.243 Y-25.791
G01 F300 X28.384 Y-25.649
G01 F300 X28.445 Y-25.581
G01 F300 X28.503 Y-25.482
G01 F300 X28.539 Y-25.372
G01 F300 X28.551 Y-25.257
G01 F300 X28.539 Y-25.143
G01 F300 X28.503 Y-25.033
G01 F300 X28.445 Y-24.933
G01 F300 X28.384 Y-24.865
G01 F300 X28.243 Y-24.723
G01 F300 X28.156 Y-24.660
G01 F300 X28.050 Y-24.614
G01 F300 X27.938 Y-24.590
G01 F300 X27.822 Y-24.590
G01 F300 X27.710 Y-24.614
G01 F300 X27.604 Y-24.660
G01 F300 X27.517 Y-24.723
G01 F300 X27.453 Y-24.788
G01 F300 X27.442 Y-24.779
G01 F300 X27.336 Y-24.733
G01 F300 X27.223 Y-24.709
G01 F300 X25.874 Y-24.709
G01 F300 X25.945 Y-24.629
G01 F300 X25.992 Y-24.549
G01 F300 X26.018 Y-24.496
G01 F300 X28.057 Y-24.496
G01 F300 X28.170 Y-24.472
G01 F300 X28.275 Y-24.425
G01 F300 X28.368 Y-24.358
G01 F300 X28.445 Y-24.272
G01 F300 X28.503 Y-24.172
G01 F300 X28.539 Y-24.062
G01 F300 X28.551 Y-23.948
G01 F300 X28.539 Y-23.833
G01 F300 X28.503 Y-23.723
G01 F300 X28.445 Y-23.623
G01 F300 X28.368 Y-23.538
G01 F300 X28.275 Y-23.470
G01 F300 X28.170 Y-23.423
G01 F300 X28.057 Y-23.399
G01 F300 X26.983 Y-23.399
G01 F300 X27.062 Y-23.364
G01 F300 X27.328 Y-23.231
G01 F300 X27.416 Y-23.167
G01 F300 X27.493 Y-23.081
G01 F300 X27.539 Y-23.001
G01 F300 X27.673 Y-22.735
G01 F300 X27.705 Y-22.634
G01 F300 X27.716 Y-22.535
G01 F300 X27.716 Y-22.027
G01 F300 X27.705 Y-21.928
G01 F300 X27.673 Y-21.827
G01 F300 X27.539 Y-21.561
G01 F300 X27.493 Y-21.480
G01 F300 X27.456 Y-21.439
G01 F300 X27.535 Y-21.381
G01 F300 X27.612 Y-21.296
G01 F300 X27.670 Y-21.196
G01 F300 X27.705 Y-21.086
G01 F300 X27.716 Y-20.987
G01 F300 X27.716 Y-20.718
G01 F300 X27.705 Y-20.619
G01 F300 X27.673 Y-20.518
G01 F300 X27.662 Y-20.496
G01 F300 X27.670 Y-20.482
G01 F300 X27.705 Y-20.372
G01 F300 X27.718 Y-20.257
G01 F300 X27.705 Y-20.143
G01 F300 X27.670 Y-20.033
G01 F300 X27.612 Y-19.933
G01 F300 X27.535 Y-19.847
G01 F300 X27.442 Y-19.779
G01 F300 X27.336 Y-19.733
G01 F300 X27.223 Y-19.709
G01 F300 X25.441 Y-19.709
G00 F3000 Z3.000
G00 F3000 X9.090 Y-22.560
G00 F1500 Z0
G01 F300 Z-0.200
G01 F300 X9.090 Y-27.160
G01 F300 X9.340 Y-27.160
G01 F300 X9.340 Y-38.846
G01 F300 X9.383 Y-39.257
G01 F300 X9.516 Y-39.665
G01 F300 X9.730 Y-40.036
G01 F300 X10.001 Y-40.337
G01 F300 X16.374 Y-46.709
G01 F300 X16.714 Y-46.957
G01 F300 X17.106 Y-47.131
G01 F300 X17.526 Y-47.220
G01 F300 X17.944 Y-47.220
G01 F300 X18.145 Y-47.422
G01 F300 X18.359 Y-47.577
G01 F300 X18.608 Y-47.688
G01 F300 X18.874 Y-47.745
G01 F300 X25.330 Y-47.745
G01 F300 X25.330 Y-54.046
G01 F300 X21.414 Y-54.046
G01 F300 X21.148 Y-54.102
G01 F300 X20.899 Y-54.213
G01 F300 X20.685 Y-54.368
G01 F300 X16.593 Y-58.460
G01 F300 X16.427 Y-58.645
G01 F300 X16.409 Y-58.676
G01 F300 X16.114 Y-58.891
G01 F300 X13.420 Y-61.584
G01 F300 X11.486 Y-59.651
G01 F300 X11.146 Y-59.403
G01 F300 X10.754 Y-59.229
G01 F300 X10.334 Y-59.140
G01 F300 X9.906 Y-59.140
G01 F300 X9.486 Y-59.229
G01 F300 X9.094 Y-59.403
G01 F300 X8.747 Y-59.655
G01 F300 X8.460 Y-59.974
G01 F300 X8.246 Y-60.346
G01 F300 X8.113 Y-60.753
G01 F300 X8.068 Y-61.180
G01 F300 X8.113 Y-61.607
G01 F300 X8.246 Y-62.015
G01 F300 X8.460 Y-62.386
G01 F300 X8.731 Y-62.687
G01 F300 X10.524 Y-64.480
G01 F300 X8.731 Y-66.273
G01 F300 X8.460 Y-66.574
G01 F300 X8.246 Y-66.946
G01 F300 X8.113 Y-67.353
G01 F300 X8.068 Y-67.780
G01 F300 X8.113 Y-68.207
G01 F300 X8.246 Y-68.615
G01 F300 X8.460 Y-68.986
G01 F300 X8.731 Y-69.287
G01 F300 X10.284 Y-70.839
G01 F300 X10.624 Y-71.087
G01 F300 X11.016 Y-71.261
G01 F300 X11.436 Y-71.350
G01 F300 X23.034 Y-71.350
G01 F300 X23.454 Y-71.261
G01 F300 X23.846 Y-71.087
G01 F300 X24.193 Y-70.835
G01 F300 X24.480 Y-70.516
G01 F300 X24.694 Y-70.145
G01 F300 X24.827 Y-69.737
G01 F300 X24.872 Y-69.310
G01 F300 X24.827 Y-68.883
G01 F300 X24.694 Y-68.475
G01 F300 X24.480 Y-68.104
G01 F300 X24.193 Y-67.785
G01 F300 X23.846 Y-67.533
G01 F300 X23.454 Y-67.359
G01 F300 X23.034 Y-67.270
G01 F300 X13.526 Y-67.270
G01 F300 X18.869 Y-61.927
G01 F300 X19.140 Y-61.626
G01 F300 X19.354 Y-61.255
G01 F300 X19.487 Y-60.847
G01 F300 X19.532 Y-60.420
G01 F300 X19.487 Y-59.993
G01 F300 X19.354 Y-59.586
G01 F300 X19.276 Y-59.450
G01 F300 X22.092 Y-56.635
G01 F300 X26.766 Y-56.635
G01 F300 X27.032 Y-56.578
G01 F300 X27.281 Y-56.467
G01 F300 X27.501 Y-56.307
G01 F300 X27.683 Y-56.105
G01 F300 X27.819 Y-55.869
G01 F300 X27.903 Y-55.611
G01 F300 X27.930 Y-55.356
G01 F300 X27.930 Y-46.434
G01 F300 X27.903 Y-46.179
G01 F300 X27.819 Y-45.921
G01 F300 X27.683 Y-45.685
G01 F300 X27.501 Y-45.483
G01 F300 X27.281 Y-45.323
G01 F300 X27.032 Y-45.212
G01 F300 X26.766 Y-45.156
G01 F300 X19.789 Y-45.156
G01 F300 X19.747 Y-44.753
G01 F300 X19.614 Y-44.346
G01 F300 X19.400 Y-43.974
G01 F300 X19.129 Y-43.673
G01 F300 X13.440 Y-37.984
G01 F300 X13.440 Y-27.160
G01 F300 X13.690 Y-27.160
G01 F300 X13.690 Y-22.560
G01 F300 X9.090 Y-22.560
G00 F3000 Z3.000
G00 F3000 X26.107 Y-26.877
G00 F1500 Z0
G01 F300 Z-0.200
G01 F300 X26.558 Y-26.877
G01 F300 X26.597 Y-26.897
G01 F300 X26.616 Y-26.934
G01 F300 X26.616 Y-27.033
G01 F300 X26.597 Y-27.070
G01 F300 X26.558 Y-27.090
G01 F300 X26.107 Y-27.090
G01 F300 X26.068 Y-27.070
G01 F300 X26.049 Y-27.032
G01 F300 X26.049 Y-26.934
G01 F300 X26.068 Y-26.897
G01 F300 X26.107 Y-26.877
G00 F3000 Z3.000
G00 F3000 X25.441 Y-29.828
G00 F1500 Z0
G01 F300 Z-0.200
G01 F300 X25.329 Y-29.852
G01 F300 X25.223 Y-29.898
G01 F300 X25.130 Y-29.966
G01 F300 X25.053 Y-30.052
G01 F300 X24.995 Y-30.152
G01 F300 X24.960 Y-30.262
G01 F300 X24.949 Y-30.360
G01 F300 X24.949 Y-31.940
G01 F300 X24.960 Y-32.038
G01 F300 X24.995 Y-32.148
G01 F300 X25.053 Y-32.248
G01 F300 X25.130 Y-32.334
G01 F300 X25.223 Y-32.402
G01 F300 X25.329 Y-32.448
G01 F300 X25.441 Y-32.472
G01 F300 X25.557 Y-32.472
G01 F300 X25.670 Y-32.448
G01 F300 X25.775 Y-32.402
G01 F300 X25.868 Y-32.334
G01 F300 X25.945 Y-32.248
G01 F300 X26.003 Y-32.148
G01 F300 X26.039 Y-32.038
G01 F300 X26.049 Y-31.939
G01 F300 X26.049 Y-31.704
G01 F300 X26.565 Y-32.219
G01 F300 X26.652 Y-32.282
G01 F300 X26.742 Y-32.322
G01 F300 X26.757 Y-32.328
G01 F300 X26.394 Y-32.328
G01 F300 X26.307 Y-32.346
G01 F300 X25.800 Y-32.473
G01 F300 X25.722 Y-32.507
G01 F300 X25.456 Y-32.641
G01 F300 X25.375 Y-32.700
G01 F300 X25.233 Y-32.841
G01 F300 X25.172 Y-32.909
G01 F300 X25.125 Y-32.989
G01 F300 X24.992 Y-33.256
G01 F300 X24.960 Y-33.357
G01 F300 X24.949 Y-33.456
G01 F300 X24.949 Y-33.725
G01 F300 X24.960 Y-33.824
G01 F300 X24.992 Y-33.925
G01 F300 X25.125 Y-34.192
G01 F300 X25.172 Y-34.272
G01 F300 X25.233 Y-34.340
G01 F300 X25.375 Y-34.481
G01 F300 X25.456 Y-34.541
G01 F300 X25.554 Y-34.590
G01 F300 X25.441 Y-34.590
G01 F300 X25.329 Y-34.614
G01 F300 X25.223 Y-34.660
G01 F300 X25.130 Y-34.728
G01 F300 X25.053 Y-34.814
G01 F300 X24.995 Y-34.914
G01 F300 X24.960 Y-35.023
G01 F300 X24.949 Y-35.122
G01 F300 X24.949 Y-36.702
G01 F300 X24.960 Y-36.800
G01 F300 X24.995 Y-36.910
G01 F300 X25.053 Y-37.010
G01 F300 X25.130 Y-37.096
G01 F300 X25.221 Y-37.162
G01 F300 X25.130 Y-37.228
G01 F300 X25.053 Y-37.314
G01 F300 X24.995 Y-37.414
G01 F300 X24.960 Y-37.523
G01 F300 X24.949 Y-37.622
G01 F300 X24.949 Y-39.083
G01 F300 X24.960 Y-39.181
G01 F300 X24.995 Y-39.291
G01 F300 X25.053 Y-39.391
G01 F300 X25.130 Y-39.477
G01 F300 X25.223 Y-39.544
G01 F300 X25.329 Y-39.591
G01 F300 X25.441 Y-39.615
G01 F300 X25.557 Y-39.615
G01 F300 X25.670 Y-39.591
G01 F300 X25.775 Y-39.544
G01 F300 X25.868 Y-39.477
G01 F300 X25.945 Y-39.391
G01 F300 X26.003 Y-39.291
G01 F300 X26.039 Y-39.181
G01 F300 X26.049 Y-39.082
G01 F300 X26.049 Y-38.901
G01 F300 X28.057 Y-38.901
G01 F300 X28.170 Y-38.877
G01 F300 X28.275 Y-38.830
G01 F300 X28.368 Y-38.762
G01 F300 X28.445 Y-38.677
G01 F300 X28.503 Y-38.577
G01 F300 X28.539 Y-38.467
G01 F300 X28.551 Y-38.352
G01 F300 X28.539 Y-38.238
G01 F300 X28.503 Y-38.128
G01 F300 X28.445 Y-38.028
G01 F300 X28.368 Y-37.943
G01 F300 X28.296 Y-37.890
G01 F300 X27.992 Y-37.688
G01 F300 X27.856 Y-37.551
G01 F300 X27.777 Y-37.394
G01 F300 X27.731 Y-37.314
G01 F300 X27.654 Y-37.228
G01 F300 X27.644 Y-37.221
G01 F300 X27.693 Y-37.210
G01 F300 X27.776 Y-37.174
G01 F300 X28.042 Y-37.040
G01 F300 X28.124 Y-36.981
G01 F300 X28.265 Y-36.840
G01 F300 X28.326 Y-36.772
G01 F300 X28.373 Y-36.692
G01 F300 X28.506 Y-36.425
G01 F300 X28.539 Y-36.324
G01 F300 X28.549 Y-36.225
G01 F300 X28.549 Y-35.599
G01 F300 X28.539 Y-35.500
G01 F300 X28.506 Y-35.399
G01 F300 X28.373 Y-35.132
G01 F300 X28.326 Y-35.052
G01 F300 X28.265 Y-34.984
G01 F300 X28.124 Y-34.843
G01 F300 X28.037 Y-34.779
G01 F300 X27.931 Y-34.733
G01 F300 X27.819 Y-34.709
G01 F300 X27.703 Y-34.709
G01 F300 X27.662 Y-34.717
G01 F300 X27.698 Y-34.708
G01 F300 X27.776 Y-34.674
G01 F300 X28.042 Y-34.540
G01 F300 X28.124 Y-34.481
G01 F300 X28.265 Y-34.340
G01 F300 X28.326 Y-34.272
G01 F300 X28.373 Y-34.192
G01 F300 X28.506 Y-33.925
G01 F300 X28.539 Y-33.824
G01 F300 X28.549 Y-33.725
G01 F300 X28.549 Y-33.456
G01 F300 X28.539 Y-33.357
G01 F300 X28.506 Y-33.256
G01 F300 X28.373 Y-32.989
G01 F300 X28.326 Y-32.909
G01 F300 X28.265 Y-32.841
G01 F300 X28.124 Y-32.700
G01 F300 X28.042 Y-32.640
G01 F300 X27.776 Y-32.507
G01 F300 X27.698 Y-32.473
G01 F300 X27.643 Y-32.459
G01 F300 X27.693 Y-32.448
G01 F300 X27.776 Y-32.412
G01 F300 X28.042 Y-32.278
G01 F300 X28.124 Y-32.219
G01 F300 X28.265 Y-32.078
G01 F300 X28.326 Y-32.010
G01 F300 X28.373 Y-31.930
G01 F300 X28.506 Y-31.663
G01 F300 X28.539 Y-31.562
G01 F300 X28.549 Y-31.463
G01 F300 X28.549 Y-30.837
G01 F300 X28.539 Y-30.738
G01 F300 X28.506 Y-30.637
G01 F300 X28.373 Y-30.370
G01 F300 X28.326 Y-30.290
G01 F300 X28.265 Y-30.222
G01 F300 X28.124 Y-30.081
G01 F300 X28.037 Y-30.018
G01 F300 X27.931 Y-29.971
G01 F300 X27.819 Y-29.947
G01 F300 X27.703 Y-29.947
G01 F300 X27.590 Y-29.971
G01 F300 X27.485 Y-30.018
G01 F300 X27.392 Y-30.085
G01 F300 X27.315 Y-30.171
G01 F300 X27.257 Y-30.271
G01 F300 X27.222 Y-30.381
G01 F300 X27.209 Y-30.495
G01 F300 X27.222 Y-30.610
G01 F300 X27.257 Y-30.720
G01 F300 X27.315 Y-30.820
G01 F300 X27.376 Y-30.888
G01 F300 X27.428 Y-30.940
G01 F300 X27.449 Y-30.982
G01 F300 X27.449 Y-31.319
G01 F300 X27.431 Y-31.355
G01 F300 X27.391 Y-31.375
G01 F300 X27.378 Y-31.375
G01 F300 X27.224 Y-31.324
G01 F300 X25.862 Y-29.962
G01 F300 X25.775 Y-29.898
G01 F300 X25.670 Y-29.852
G01 F300 X25.557 Y-29.828
G01 F300 X25.441 Y-29.828
G00 F3000 Z3.000
G00 F3000 X26.522 Y-33.425
G00 F1500 Z0
G01 F300 Z-0.200
G01 F300 X26.976 Y-33.425
G01 F300 X27.330 Y-33.513
G01 F300 X27.430 Y-33.564
G01 F300 X27.444 Y-33.591
